<?xml version="1.0" encoding="UTF-8"?>
<map version="1.0" orientation="orthogonal" renderorder="right-up" width="28" height="21" tilewidth="16" tileheight="16" nextobjectid="50">
 <properties>
  <property name="bgm" value="30-kakariko-village.mp3"/>
 </properties>
 <tileset firstgid="1" name="Tiles" tilewidth="16" tileheight="16" tilecount="1288" columns="46">
  <image source="../../Maps/Tiles_16x16.png" trans="ff00ff" width="736" height="448"/>
  <tile id="0">
   <properties>
    <property name="Type" value="Passable"/>
   </properties>
  </tile>
  <tile id="1">
   <properties>
    <property name="Type" value="Passable"/>
   </properties>
  </tile>
  <tile id="2">
   <properties>
    <property name="Type" value="Passable"/>
   </properties>
  </tile>
  <tile id="3">
   <properties>
    <property name="Type" value="Passable"/>
   </properties>
  </tile>
  <tile id="4">
   <properties>
    <property name="Type" value="Passable"/>
   </properties>
  </tile>
  <tile id="5">
   <properties>
    <property name="Type" value="Passable"/>
   </properties>
  </tile>
  <tile id="14">
   <properties>
    <property name="TextToSay1" value="Hola, finalmente has despertado."/>
    <property name="TextToSay2" value="A ocurrido un desastre en la aldea, una bestia a aparecido"/>
    <property name="TextToSay3" value="y esta bloqueando la unica salida de la aldea, la gente esta preocupada."/>
    <property name="TextToSay4" value="..."/>
    <property name="TextToSay5" value="Los sabios creen que tu eres la unica que puede ayudarnos"/>
    <property name="TextToSay6" value="Date prisa, ve a la iglesia!"/>
    <property name="Type" value="Dialog"/>
   </properties>
  </tile>
  <tile id="23">
   <properties>
    <property name="Type" value="Block"/>
   </properties>
  </tile>
  <tile id="24">
   <properties>
    <property name="Type" value="Block"/>
   </properties>
  </tile>
  <tile id="25">
   <properties>
    <property name="Type" value="Block"/>
   </properties>
  </tile>
  <tile id="26">
   <properties>
    <property name="Type" value="Block"/>
   </properties>
  </tile>
  <tile id="27">
   <properties>
    <property name="Type" value="Block"/>
   </properties>
  </tile>
  <tile id="30">
   <properties>
    <property name="Type" value="Block"/>
   </properties>
  </tile>
  <tile id="31">
   <properties>
    <property name="Type" value="Block"/>
   </properties>
  </tile>
  <tile id="32">
   <properties>
    <property name="Type" value="Block"/>
   </properties>
  </tile>
  <tile id="33">
   <properties>
    <property name="Type" value="Block"/>
   </properties>
  </tile>
  <tile id="46">
   <properties>
    <property name="Type" value="Block"/>
   </properties>
  </tile>
  <tile id="47">
   <properties>
    <property name="Type" value="Block"/>
   </properties>
  </tile>
  <tile id="48">
   <properties>
    <property name="Type" value="Block"/>
   </properties>
  </tile>
  <tile id="49">
   <properties>
    <property name="Type" value="Block"/>
   </properties>
  </tile>
  <tile id="50">
   <properties>
    <property name="Type" value="Block"/>
   </properties>
  </tile>
  <tile id="55">
   <properties>
    <property name="Type" value="Block"/>
   </properties>
  </tile>
  <tile id="56">
   <properties>
    <property name="BrekableWith" value="SWORD"/>
    <property name="Type" value="Break"/>
   </properties>
  </tile>
  <tile id="69">
   <properties>
    <property name="Type" value="Block"/>
   </properties>
  </tile>
  <tile id="70">
   <properties>
    <property name="Type" value="Passable"/>
   </properties>
  </tile>
  <tile id="71">
   <properties>
    <property name="Type" value="Passable"/>
   </properties>
  </tile>
  <tile id="72">
   <properties>
    <property name="Type" value="Block"/>
   </properties>
  </tile>
  <tile id="73">
   <properties>
    <property name="Type" value="Block"/>
   </properties>
  </tile>
  <tile id="92">
   <properties>
    <property name="Type" value="Block"/>
   </properties>
  </tile>
  <tile id="93">
   <properties>
    <property name="Type" value="Block"/>
   </properties>
  </tile>
  <tile id="94">
   <properties>
    <property name="Type" value="Block"/>
   </properties>
  </tile>
  <tile id="95">
   <properties>
    <property name="Type" value="Block"/>
   </properties>
  </tile>
  <tile id="96">
   <properties>
    <property name="Type" value="Block"/>
   </properties>
  </tile>
  <tile id="97">
   <properties>
    <property name="Type" value="Block"/>
   </properties>
  </tile>
  <tile id="98">
   <properties>
    <property name="Type" value="Block"/>
   </properties>
  </tile>
  <tile id="99">
   <properties>
    <property name="Type" value="Block"/>
   </properties>
  </tile>
  <tile id="100">
   <properties>
    <property name="Type" value="Block"/>
   </properties>
  </tile>
  <tile id="101">
   <properties>
    <property name="Type" value="Block"/>
   </properties>
  </tile>
  <tile id="102">
   <properties>
    <property name="Type" value="Block"/>
   </properties>
  </tile>
  <tile id="115">
   <properties>
    <property name="Type" value="Block"/>
   </properties>
  </tile>
  <tile id="116">
   <properties>
    <property name="Type" value="Block"/>
   </properties>
  </tile>
  <tile id="117">
   <properties>
    <property name="Type" value="Block"/>
   </properties>
  </tile>
  <tile id="118">
   <properties>
    <property name="Type" value="Block"/>
   </properties>
  </tile>
  <tile id="119">
   <properties>
    <property name="Type" value="Block"/>
   </properties>
  </tile>
  <tile id="120">
   <properties>
    <property name="Type" value="Block"/>
   </properties>
  </tile>
  <tile id="121">
   <properties>
    <property name="Type" value="Block"/>
   </properties>
  </tile>
  <tile id="122">
   <properties>
    <property name="Type" value="Block"/>
   </properties>
  </tile>
  <tile id="123">
   <properties>
    <property name="Type" value="Block"/>
   </properties>
  </tile>
  <tile id="124">
   <properties>
    <property name="Type" value="Block"/>
   </properties>
  </tile>
  <tile id="125">
   <properties>
    <property name="Type" value="Block"/>
   </properties>
  </tile>
  <tile id="138">
   <properties>
    <property name="Type" value="Passable"/>
   </properties>
  </tile>
  <tile id="139">
   <properties>
    <property name="Type" value="Passable"/>
   </properties>
  </tile>
  <tile id="140">
   <properties>
    <property name="Type" value="Passable"/>
   </properties>
  </tile>
  <tile id="141">
   <properties>
    <property name="Type" value="Passable"/>
   </properties>
  </tile>
  <tile id="142">
   <properties>
    <property name="Type" value="Passable"/>
   </properties>
  </tile>
  <tile id="161">
   <properties>
    <property name="Type" value="Passable"/>
   </properties>
  </tile>
  <tile id="162">
   <properties>
    <property name="Type" value="Passable"/>
   </properties>
  </tile>
  <tile id="163">
   <properties>
    <property name="Type" value="Passable"/>
   </properties>
  </tile>
  <tile id="164">
   <properties>
    <property name="Type" value="Passable"/>
   </properties>
  </tile>
  <tile id="165">
   <properties>
    <property name="Type" value="Passable"/>
   </properties>
  </tile>
  <tile id="171">
   <properties>
    <property name="Type" value="Block"/>
   </properties>
  </tile>
  <tile id="172">
   <properties>
    <property name="Type" value="Block"/>
   </properties>
  </tile>
  <tile id="173">
   <properties>
    <property name="Type" value="Block"/>
   </properties>
  </tile>
  <tile id="174">
   <properties>
    <property name="Type" value="Block"/>
   </properties>
  </tile>
  <tile id="175">
   <properties>
    <property name="Type" value="Block"/>
   </properties>
  </tile>
  <tile id="176">
   <properties>
    <property name="Type" value="Block"/>
   </properties>
  </tile>
  <tile id="184">
   <properties>
    <property name="Type" value="Block"/>
   </properties>
  </tile>
  <tile id="185">
   <properties>
    <property name="Type" value="Passable"/>
   </properties>
  </tile>
  <tile id="186">
   <properties>
    <property name="Type" value="Passable"/>
   </properties>
  </tile>
  <tile id="187">
   <properties>
    <property name="Type" value="Passable"/>
   </properties>
  </tile>
  <tile id="188">
   <properties>
    <property name="Type" value="Block"/>
   </properties>
  </tile>
  <tile id="194">
   <properties>
    <property name="Type" value="Block"/>
   </properties>
  </tile>
  <tile id="195">
   <properties>
    <property name="Type" value="Block"/>
   </properties>
  </tile>
  <tile id="196">
   <properties>
    <property name="Type" value="Block"/>
   </properties>
  </tile>
  <tile id="197">
   <properties>
    <property name="Type" value="Block"/>
   </properties>
  </tile>
  <tile id="198">
   <properties>
    <property name="Type" value="Block"/>
   </properties>
  </tile>
  <tile id="199">
   <properties>
    <property name="Type" value="Block"/>
   </properties>
  </tile>
  <tile id="207">
   <properties>
    <property name="Type" value="Passable"/>
   </properties>
  </tile>
  <tile id="208">
   <properties>
    <property name="Type" value="Passable"/>
   </properties>
  </tile>
  <tile id="209">
   <properties>
    <property name="Type" value="Passable"/>
   </properties>
  </tile>
  <tile id="210">
   <properties>
    <property name="Type" value="Passable"/>
   </properties>
  </tile>
  <tile id="211">
   <properties>
    <property name="Type" value="Block"/>
   </properties>
  </tile>
  <tile id="212">
   <properties>
    <property name="Type" value="Block"/>
   </properties>
  </tile>
  <tile id="213">
   <properties>
    <property name="Type" value="Block"/>
   </properties>
  </tile>
  <tile id="214">
   <properties>
    <property name="Type" value="Block"/>
   </properties>
  </tile>
  <tile id="215">
   <properties>
    <property name="Type" value="Block"/>
   </properties>
  </tile>
  <tile id="216">
   <properties>
    <property name="Type" value="Block"/>
   </properties>
  </tile>
  <tile id="217">
   <properties>
    <property name="Type" value="Block"/>
   </properties>
  </tile>
  <tile id="218">
   <properties>
    <property name="Type" value="Block"/>
   </properties>
  </tile>
  <tile id="219">
   <properties>
    <property name="Type" value="Block"/>
   </properties>
  </tile>
  <tile id="220">
   <properties>
    <property name="Type" value="Block"/>
   </properties>
  </tile>
  <tile id="221">
   <properties>
    <property name="Type" value="Block"/>
   </properties>
  </tile>
  <tile id="222">
   <properties>
    <property name="Type" value="Block"/>
   </properties>
  </tile>
  <tile id="230">
   <properties>
    <property name="Type" value="Passable"/>
   </properties>
  </tile>
  <tile id="231">
   <properties>
    <property name="Type" value="Passable"/>
   </properties>
  </tile>
  <tile id="232">
   <properties>
    <property name="Type" value="Passable"/>
   </properties>
  </tile>
  <tile id="233">
   <properties>
    <property name="Type" value="Passable"/>
   </properties>
  </tile>
  <tile id="234">
   <properties>
    <property name="Type" value="Block"/>
   </properties>
  </tile>
  <tile id="235">
   <properties>
    <property name="Type" value="Block"/>
   </properties>
  </tile>
  <tile id="236">
   <properties>
    <property name="Type" value="Block"/>
   </properties>
  </tile>
  <tile id="237">
   <properties>
    <property name="Type" value="Block"/>
   </properties>
  </tile>
  <tile id="238">
   <properties>
    <property name="Type" value="Block"/>
   </properties>
  </tile>
  <tile id="239">
   <properties>
    <property name="Type" value="Block"/>
   </properties>
  </tile>
  <tile id="240">
   <properties>
    <property name="Type" value="Block"/>
   </properties>
  </tile>
  <tile id="241">
   <properties>
    <property name="Type" value="Block"/>
   </properties>
  </tile>
  <tile id="242">
   <properties>
    <property name="Type" value="Block"/>
   </properties>
  </tile>
  <tile id="243">
   <properties>
    <property name="Type" value="Block"/>
   </properties>
  </tile>
  <tile id="244">
   <properties>
    <property name="Type" value="Block"/>
   </properties>
  </tile>
  <tile id="245">
   <properties>
    <property name="Type" value="Block"/>
   </properties>
  </tile>
  <tile id="253">
   <properties>
    <property name="Type" value="Block"/>
   </properties>
  </tile>
  <tile id="254">
   <properties>
    <property name="Type" value="Block"/>
   </properties>
  </tile>
  <tile id="255">
   <properties>
    <property name="Type" value="Block"/>
   </properties>
  </tile>
  <tile id="256">
   <properties>
    <property name="Type" value="Block"/>
   </properties>
  </tile>
  <tile id="257">
   <properties>
    <property name="Type" value="Block"/>
   </properties>
  </tile>
  <tile id="258">
   <properties>
    <property name="Type" value="Block"/>
   </properties>
  </tile>
  <tile id="259">
   <properties>
    <property name="Type" value="Block"/>
   </properties>
  </tile>
  <tile id="260">
   <properties>
    <property name="Type" value="Block"/>
   </properties>
  </tile>
  <tile id="261">
   <properties>
    <property name="Type" value="Block"/>
   </properties>
  </tile>
  <tile id="262">
   <properties>
    <property name="Type" value="Block"/>
   </properties>
  </tile>
  <tile id="263">
   <properties>
    <property name="Type" value="Block"/>
   </properties>
  </tile>
  <tile id="264">
   <properties>
    <property name="Type" value="Block"/>
   </properties>
  </tile>
  <tile id="265">
   <properties>
    <property name="Type" value="Block"/>
   </properties>
  </tile>
  <tile id="266">
   <properties>
    <property name="Type" value="Block"/>
   </properties>
  </tile>
  <tile id="267">
   <properties>
    <property name="Type" value="Block"/>
   </properties>
  </tile>
  <tile id="268">
   <properties>
    <property name="Type" value="Block"/>
   </properties>
  </tile>
  <tile id="276">
   <properties>
    <property name="Type" value="Block"/>
   </properties>
  </tile>
  <tile id="277">
   <properties>
    <property name="Type" value="Block"/>
   </properties>
  </tile>
  <tile id="278">
   <properties>
    <property name="Type" value="Block"/>
   </properties>
  </tile>
  <tile id="279">
   <properties>
    <property name="Type" value="Block"/>
   </properties>
  </tile>
  <tile id="280">
   <properties>
    <property name="Type" value="Block"/>
   </properties>
  </tile>
  <tile id="281">
   <properties>
    <property name="Type" value="Block"/>
   </properties>
  </tile>
  <tile id="282">
   <properties>
    <property name="Type" value="Block"/>
   </properties>
  </tile>
  <tile id="283">
   <properties>
    <property name="Type" value="Block"/>
   </properties>
  </tile>
  <tile id="284">
   <properties>
    <property name="Type" value="Block"/>
   </properties>
  </tile>
  <tile id="285">
   <properties>
    <property name="Type" value="Block"/>
   </properties>
  </tile>
  <tile id="286">
   <properties>
    <property name="Type" value="Block"/>
   </properties>
  </tile>
  <tile id="287">
   <properties>
    <property name="Type" value="Block"/>
   </properties>
  </tile>
  <tile id="288">
   <properties>
    <property name="Type" value="Passable"/>
   </properties>
  </tile>
  <tile id="289">
   <properties>
    <property name="Type" value="Passable"/>
   </properties>
  </tile>
  <tile id="290">
   <properties>
    <property name="Type" value="Block"/>
   </properties>
  </tile>
  <tile id="291">
   <properties>
    <property name="Type" value="Block"/>
   </properties>
  </tile>
  <tile id="299">
   <properties>
    <property name="Type" value="Passable"/>
   </properties>
  </tile>
  <tile id="300">
   <properties>
    <property name="Type" value="Passable"/>
   </properties>
  </tile>
  <tile id="301">
   <properties>
    <property name="Type" value="Passable"/>
   </properties>
  </tile>
  <tile id="302">
   <properties>
    <property name="Type" value="Passable"/>
   </properties>
  </tile>
  <tile id="303">
   <properties>
    <property name="Type" value="Block"/>
   </properties>
  </tile>
  <tile id="304">
   <properties>
    <property name="Type" value="Block"/>
   </properties>
  </tile>
  <tile id="305">
   <properties>
    <property name="Type" value="Block"/>
   </properties>
  </tile>
  <tile id="306">
   <properties>
    <property name="Type" value="Block"/>
   </properties>
  </tile>
  <tile id="307">
   <properties>
    <property name="Type" value="Block"/>
   </properties>
  </tile>
  <tile id="308">
   <properties>
    <property name="Type" value="Block"/>
   </properties>
  </tile>
  <tile id="309">
   <properties>
    <property name="Type" value="Passable"/>
   </properties>
  </tile>
  <tile id="310">
   <properties>
    <property name="Type" value="Block"/>
   </properties>
  </tile>
  <tile id="311">
   <properties>
    <property name="Type" value="Passable"/>
   </properties>
  </tile>
  <tile id="312">
   <properties>
    <property name="Type" value="Passable"/>
   </properties>
  </tile>
  <tile id="313">
   <properties>
    <property name="Type" value="Block"/>
   </properties>
  </tile>
  <tile id="314">
   <properties>
    <property name="Type" value="Passable"/>
   </properties>
  </tile>
  <tile id="658">
   <properties>
    <property name="Type" value="Block"/>
   </properties>
  </tile>
  <tile id="659">
   <properties>
    <property name="Type" value="Block"/>
   </properties>
  </tile>
  <tile id="660">
   <properties>
    <property name="Type" value="Block"/>
   </properties>
  </tile>
  <tile id="661">
   <properties>
    <property name="Type" value="Block"/>
   </properties>
  </tile>
  <tile id="662">
   <properties>
    <property name="Type" value="Block"/>
   </properties>
  </tile>
  <tile id="663">
   <properties>
    <property name="Type" value="Block"/>
   </properties>
  </tile>
  <tile id="664">
   <properties>
    <property name="Type" value="Block"/>
   </properties>
  </tile>
  <tile id="665">
   <properties>
    <property name="Type" value="Block"/>
   </properties>
  </tile>
  <tile id="666">
   <properties>
    <property name="Type" value="Block"/>
   </properties>
  </tile>
  <tile id="667">
   <properties>
    <property name="Type" value="Passable"/>
   </properties>
  </tile>
  <tile id="668">
   <properties>
    <property name="Type" value="Block"/>
   </properties>
  </tile>
  <tile id="704">
   <properties>
    <property name="Type" value="Block"/>
   </properties>
  </tile>
  <tile id="705">
   <properties>
    <property name="Type" value="Block"/>
   </properties>
  </tile>
  <tile id="706">
   <properties>
    <property name="Type" value="Block"/>
   </properties>
  </tile>
  <tile id="707">
   <properties>
    <property name="Type" value="Block"/>
   </properties>
  </tile>
  <tile id="708">
   <properties>
    <property name="Type" value="Block"/>
   </properties>
  </tile>
  <tile id="709">
   <properties>
    <property name="Type" value="Block"/>
   </properties>
  </tile>
  <tile id="710">
   <properties>
    <property name="Type" value="Block"/>
   </properties>
  </tile>
  <tile id="711">
   <properties>
    <property name="Type" value="Block"/>
   </properties>
  </tile>
  <tile id="712">
   <properties>
    <property name="Type" value="Block"/>
   </properties>
  </tile>
  <tile id="713">
   <properties>
    <property name="Type" value="Block"/>
   </properties>
  </tile>
  <tile id="714">
   <properties>
    <property name="Type" value="Block"/>
   </properties>
  </tile>
  <tile id="750">
   <properties>
    <property name="Type" value="Block"/>
   </properties>
  </tile>
  <tile id="751">
   <properties>
    <property name="Type" value="Block"/>
   </properties>
  </tile>
  <tile id="752">
   <properties>
    <property name="Type" value="Passable"/>
   </properties>
  </tile>
  <tile id="753">
   <properties>
    <property name="Type" value="Block"/>
   </properties>
  </tile>
  <tile id="754">
   <properties>
    <property name="Type" value="Block"/>
   </properties>
  </tile>
  <tile id="755">
   <properties>
    <property name="Type" value="Block"/>
   </properties>
  </tile>
  <tile id="756">
   <properties>
    <property name="Type" value="Block"/>
   </properties>
  </tile>
  <tile id="757">
   <properties>
    <property name="Type" value="Block"/>
   </properties>
  </tile>
  <tile id="758">
   <properties>
    <property name="Type" value="Block"/>
   </properties>
  </tile>
  <tile id="759">
   <properties>
    <property name="Type" value="Block"/>
   </properties>
  </tile>
  <tile id="760">
   <properties>
    <property name="Type" value="Block"/>
   </properties>
  </tile>
  <tile id="796">
   <properties>
    <property name="Type" value="Block"/>
   </properties>
  </tile>
  <tile id="797">
   <properties>
    <property name="Type" value="Block"/>
   </properties>
  </tile>
  <tile id="798">
   <properties>
    <property name="Type" value="Block"/>
   </properties>
  </tile>
  <tile id="799">
   <properties>
    <property name="Type" value="Block"/>
   </properties>
  </tile>
  <tile id="800">
   <properties>
    <property name="Type" value="Block"/>
   </properties>
  </tile>
  <tile id="801">
   <properties>
    <property name="Type" value="Block"/>
   </properties>
  </tile>
  <tile id="802">
   <properties>
    <property name="Type" value="Block"/>
   </properties>
  </tile>
  <tile id="803">
   <properties>
    <property name="Type" value="Block"/>
   </properties>
  </tile>
  <tile id="804">
   <properties>
    <property name="Type" value="Block"/>
   </properties>
  </tile>
  <tile id="805">
   <properties>
    <property name="Type" value="Block"/>
   </properties>
  </tile>
  <tile id="806">
   <properties>
    <property name="Type" value="Block"/>
   </properties>
  </tile>
  <tile id="842">
   <properties>
    <property name="Type" value="Block"/>
   </properties>
  </tile>
  <tile id="843">
   <properties>
    <property name="Type" value="Block"/>
   </properties>
  </tile>
  <tile id="844">
   <properties>
    <property name="Type" value="Passable"/>
   </properties>
  </tile>
  <tile id="845">
   <properties>
    <property name="Type" value="Block"/>
   </properties>
  </tile>
  <tile id="846">
   <properties>
    <property name="Type" value="Block"/>
   </properties>
  </tile>
  <tile id="847">
   <properties>
    <property name="Type" value="Block"/>
   </properties>
  </tile>
  <tile id="848">
   <properties>
    <property name="Type" value="Block"/>
   </properties>
  </tile>
  <tile id="849">
   <properties>
    <property name="Type" value="Block"/>
   </properties>
  </tile>
  <tile id="850">
   <properties>
    <property name="Type" value="Block"/>
   </properties>
  </tile>
  <tile id="851">
   <properties>
    <property name="Type" value="Block"/>
   </properties>
  </tile>
  <tile id="888">
   <properties>
    <property name="Type" value="Block"/>
   </properties>
  </tile>
  <tile id="889">
   <properties>
    <property name="Type" value="Block"/>
   </properties>
  </tile>
  <tile id="890">
   <properties>
    <property name="Type" value="Passable"/>
   </properties>
  </tile>
  <tile id="891">
   <properties>
    <property name="Type" value="Block"/>
   </properties>
  </tile>
  <tile id="892">
   <properties>
    <property name="Type" value="Block"/>
   </properties>
  </tile>
  <tile id="893">
   <properties>
    <property name="Type" value="Block"/>
   </properties>
  </tile>
  <tile id="894">
   <properties>
    <property name="Type" value="Block"/>
   </properties>
  </tile>
  <tile id="895">
   <properties>
    <property name="Type" value="Block"/>
   </properties>
  </tile>
  <tile id="896">
   <properties>
    <property name="FrameX" value="6"/>
    <property name="FrameY" value="8"/>
    <property name="Type" value="ChangeFace"/>
   </properties>
  </tile>
  <tile id="897">
   <properties>
    <property name="FrameX" value="6"/>
    <property name="FrameY" value="8"/>
    <property name="Type" value="ChangeFace"/>
   </properties>
  </tile>
  <tile id="934">
   <properties>
    <property name="Type" value="Block"/>
   </properties>
  </tile>
  <tile id="935">
   <properties>
    <property name="Type" value="Block"/>
   </properties>
  </tile>
  <tile id="936">
   <properties>
    <property name="Type" value="Block"/>
   </properties>
  </tile>
  <tile id="937">
   <properties>
    <property name="Type" value="Block"/>
   </properties>
  </tile>
  <tile id="938">
   <properties>
    <property name="Type" value="Block"/>
   </properties>
  </tile>
  <tile id="939">
   <properties>
    <property name="Type" value="Block"/>
   </properties>
  </tile>
  <tile id="940">
   <properties>
    <property name="Type" value="Block"/>
   </properties>
  </tile>
  <tile id="941">
   <properties>
    <property name="Type" value="Block"/>
   </properties>
  </tile>
  <tile id="942">
   <properties>
    <property name="Type" value="Block"/>
   </properties>
  </tile>
  <tile id="943">
   <properties>
    <property name="Type" value="Block"/>
   </properties>
  </tile>
  <tile id="980">
   <properties>
    <property name="Type" value="Block"/>
   </properties>
  </tile>
  <tile id="981">
   <properties>
    <property name="Type" value="Block"/>
   </properties>
  </tile>
  <tile id="982">
   <properties>
    <property name="Type" value="Block"/>
   </properties>
  </tile>
  <tile id="983">
   <properties>
    <property name="Type" value="Block"/>
   </properties>
  </tile>
  <tile id="984">
   <properties>
    <property name="Type" value="Block"/>
   </properties>
  </tile>
  <tile id="985">
   <properties>
    <property name="Type" value="Block"/>
   </properties>
  </tile>
  <tile id="986">
   <properties>
    <property name="Type" value="Block"/>
   </properties>
  </tile>
  <tile id="987">
   <properties>
    <property name="Type" value="Block"/>
   </properties>
  </tile>
  <tile id="988">
   <properties>
    <property name="Type" value="Block"/>
   </properties>
  </tile>
  <tile id="989">
   <properties>
    <property name="Type" value="Block"/>
   </properties>
  </tile>
  <tile id="1242">
   <properties>
    <property name="TeleportTo" value="Town.tmx"/>
    <property name="TeleportX" value="28"/>
    <property name="TeleportY" value="20"/>
    <property name="Type" value="Teleport"/>
   </properties>
  </tile>
 </tileset>
 <tileset firstgid="1289" name="Enemies" tilewidth="19" tileheight="21" tilecount="726" columns="33">
  <image source="../../Enemies/EnemiesMatrix.png" trans="ff00ff" width="640" height="480"/>
  <tile id="0">
   <properties>
    <property name="Type" value="BunnyEnemy"/>
   </properties>
  </tile>
  <tile id="33">
   <properties>
    <property name="Type" value="Hero"/>
   </properties>
  </tile>
  <tile id="66">
   <properties>
    <property name="Speed" value="2"/>
    <property name="Type" value="GreenSoldier"/>
   </properties>
  </tile>
 </tileset>
 <layer name="BaseLayer" width="28" height="21">
  <data encoding="csv">
845,845,845,845,845,845,845,845,845,845,845,845,845,845,845,845,845,845,845,845,845,845,845,845,845,845,845,845,
845,845,845,845,845,845,845,845,845,845,845,845,845,845,845,845,845,845,845,845,845,845,845,845,845,845,845,845,
845,845,845,845,845,845,845,845,845,845,895,845,845,845,845,845,845,845,845,845,845,845,845,845,845,845,845,845,
845,845,845,845,845,845,845,845,845,845,845,845,845,845,845,845,845,845,845,845,845,845,845,845,845,845,845,845,
845,845,845,845,845,845,845,845,845,845,845,845,845,845,845,845,845,845,845,845,845,845,845,845,845,845,845,845,
845,845,845,845,845,845,845,845,845,845,845,845,845,845,845,845,845,845,845,845,845,845,845,845,845,845,845,845,
845,845,845,845,845,845,845,845,845,845,845,845,845,845,845,845,845,845,845,845,845,845,845,845,845,845,845,845,
845,845,845,845,845,845,845,845,845,845,845,845,845,845,845,845,845,845,845,845,845,845,845,845,845,845,845,845,
845,845,845,845,845,845,845,845,845,845,845,845,845,845,845,845,845,845,845,845,845,845,845,845,845,845,845,845,
845,845,845,845,845,845,845,845,845,845,845,845,845,845,845,845,845,845,845,845,845,845,845,845,845,845,845,845,
845,845,845,845,845,845,845,845,845,845,845,845,845,845,845,845,845,845,845,845,845,845,845,845,845,845,845,845,
845,845,845,845,845,845,845,845,845,845,845,845,845,845,845,845,845,845,845,845,845,845,845,845,845,845,845,845,
845,845,845,845,845,845,845,845,845,845,845,845,845,845,845,845,845,845,845,845,845,845,845,845,845,845,845,845,
845,845,845,845,845,845,845,845,845,845,845,845,845,845,845,845,845,845,845,845,845,845,845,845,845,845,845,845,
845,845,845,845,845,845,845,845,845,845,845,845,845,845,845,845,845,845,845,845,845,845,845,845,845,845,845,845,
845,845,845,845,845,845,845,845,845,845,845,845,845,845,845,845,845,845,845,845,845,845,845,845,845,845,845,845,
845,845,845,845,845,845,845,845,845,845,845,845,845,845,845,845,845,845,845,845,845,845,845,845,845,845,845,845,
845,845,845,845,845,845,845,845,845,845,845,845,845,845,845,845,845,845,845,845,845,845,845,845,845,845,845,845,
845,845,845,845,845,845,845,845,845,845,845,845,845,845,845,845,845,845,845,845,845,845,845,845,845,845,845,845,
845,845,845,845,845,845,845,845,845,845,845,845,845,845,845,845,845,845,845,845,845,845,845,845,845,845,845,845,
845,845,845,845,845,845,845,845,845,845,845,845,845,5,5,5,845,845,845,845,845,845,845,845,845,845,845,845
</data>
 </layer>
 <layer name="LowerLayer" width="28" height="21">
  <data encoding="csv">
659,660,661,664,665,661,662,663,659,666,661,661,661,662,663,664,754,755,755,755,756,664,665,662,663,664,665,666,
705,706,851,852,851,852,708,709,705,712,428,428,428,708,709,707,800,801,801,801,802,707,707,708,709,707,711,712,
705,890,897,898,897,898,753,890,705,712,474,474,474,753,753,753,753,753,753,753,753,94,95,753,753,57,895,712,
889,890,943,944,943,944,15,890,705,712,895,753,753,753,799,753,799,753,799,753,753,140,141,753,753,753,895,896,
935,890,989,990,989,990,753,890,705,712,895,753,753,753,759,760,760,760,761,753,753,753,753,753,753,753,895,942,
705,890,753,753,753,753,753,890,705,712,895,753,753,753,805,806,806,806,807,753,753,753,753,753,753,753,895,712,
705,890,753,753,753,753,753,890,705,712,895,753,753,753,799,753,799,753,799,753,753,753,753,753,753,753,895,712,
705,890,753,753,753,753,753,890,981,988,895,753,753,753,753,753,753,753,753,753,753,753,753,753,753,753,895,712,
889,890,753,753,753,753,753,936,937,937,941,753,753,753,753,753,753,753,753,753,753,753,753,753,753,753,895,896,
935,890,753,753,753,753,753,845,753,845,753,753,753,753,753,753,753,753,753,753,753,753,753,753,753,753,895,942,
751,752,753,753,753,753,753,753,753,753,753,753,753,753,753,753,753,706,707,707,707,707,707,707,710,711,895,758,
797,798,753,753,753,753,753,753,753,753,753,753,753,753,753,753,753,890,659,660,660,660,660,660,666,895,895,660,
843,844,753,753,753,753,753,753,753,753,753,753,753,753,753,753,753,890,981,987,987,987,987,987,988,895,895,987,
889,890,753,753,753,753,753,753,753,753,753,753,753,753,753,753,753,936,937,937,937,937,937,937,937,941,895,896,
935,890,753,753,753,753,753,753,753,753,753,753,753,753,753,753,753,753,753,753,753,753,753,753,753,753,895,942,
705,890,57,57,753,753,753,753,753,753,753,753,753,753,753,753,753,753,753,753,753,753,753,753,753,57,895,712,
705,890,57,57,753,753,753,753,753,753,753,753,753,753,753,753,753,753,753,753,753,753,753,753,753,57,895,712,
705,890,57,57,753,753,753,753,753,753,753,753,753,753,753,753,753,753,753,753,753,753,753,753,753,57,895,712,
889,890,57,57,753,753,753,753,753,753,753,891,753,891,891,891,753,753,753,753,753,753,753,753,753,57,895,896,
935,936,937,937,937,937,937,937,937,937,937,937,937,667,668,669,937,937,937,937,937,937,937,937,937,937,941,942,
981,987,987,987,982,983,987,987,987,982,983,987,987,47,1243,47,987,987,987,982,983,987,987,987,982,983,987,988
</data>
 </layer>
 <layer name="UpperLayer" width="28" height="21">
  <data encoding="csv">
0,0,0,0,0,0,0,0,0,0,0,0,0,0,0,0,0,0,0,0,0,0,0,0,0,0,0,0,
0,0,0,0,0,0,0,0,0,0,0,0,0,0,0,0,0,0,0,0,0,0,0,0,0,0,0,0,
0,0,0,0,0,0,0,0,0,0,0,0,0,0,0,0,0,0,0,0,0,0,0,0,0,0,0,0,
0,0,0,0,0,0,0,0,0,0,0,0,0,0,0,0,0,0,0,0,0,0,0,0,0,0,0,0,
0,0,0,0,0,0,0,0,0,0,0,0,0,0,0,0,0,0,0,0,0,0,0,0,0,0,0,0,
0,0,0,0,0,0,0,0,0,0,0,0,0,0,0,0,0,0,0,0,0,0,0,0,0,0,0,0,
0,0,0,0,0,0,0,0,0,0,0,0,0,0,0,0,0,0,0,0,0,0,0,0,0,0,0,0,
0,0,0,0,0,0,0,0,0,0,0,0,0,0,0,0,0,0,0,0,0,0,0,0,0,0,0,0,
0,0,0,0,0,0,0,0,0,0,0,0,0,0,0,0,0,0,0,0,0,0,0,0,0,0,0,0,
0,0,0,0,0,0,0,0,0,0,0,0,0,0,0,0,0,0,0,0,0,0,0,0,0,0,0,0,
0,0,0,0,0,0,0,0,0,0,0,0,0,0,0,0,0,0,0,0,0,0,0,0,0,0,0,0,
0,0,0,0,0,0,0,0,0,0,0,0,0,0,0,0,0,0,0,0,0,0,0,0,0,0,0,0,
0,0,0,0,0,0,0,0,0,0,0,0,0,0,0,0,0,0,0,0,0,0,0,0,0,0,0,0,
0,0,0,0,0,0,0,0,0,0,0,0,0,0,0,0,0,0,0,0,0,0,0,0,0,0,0,0,
0,0,0,0,0,0,0,0,0,0,0,0,0,0,0,0,0,0,0,0,0,0,0,0,0,0,0,0,
0,0,0,0,0,0,0,0,0,0,0,0,0,0,0,0,0,0,0,0,0,0,0,0,0,0,0,0,
0,0,0,0,0,0,0,0,0,0,0,0,0,0,0,0,0,0,0,0,0,0,0,0,0,0,0,0,
0,0,0,0,0,0,0,0,0,0,0,0,0,0,0,0,0,0,0,0,0,0,0,0,0,0,0,0,
0,0,0,0,0,0,0,0,0,0,0,0,0,0,0,0,0,0,0,0,0,0,0,0,0,0,0,0,
0,0,0,0,0,0,0,0,0,0,0,0,0,0,0,0,0,0,0,0,0,0,0,0,0,0,0,0,
0,0,0,0,0,0,0,0,0,0,0,0,0,713,714,715,0,0,0,0,0,0,0,0,0,0,0,0
</data>
 </layer>
 <layer name="Enemies" width="28" height="21">
  <data encoding="csv">
0,0,0,0,0,0,0,0,0,0,0,0,0,0,0,0,0,0,0,0,0,0,0,0,0,0,0,0,
0,0,0,0,0,0,0,0,0,0,0,0,0,0,0,0,0,0,0,0,0,0,0,0,0,0,0,0,
0,0,0,0,1322,0,0,0,0,0,0,0,0,0,0,0,0,0,0,0,0,0,0,0,0,0,0,0,
0,0,0,0,0,0,0,0,0,0,0,0,0,0,0,0,0,0,0,0,0,0,0,0,0,0,0,0,
0,0,0,0,0,0,0,0,0,0,0,0,0,0,0,0,0,0,0,0,0,0,0,0,0,0,0,0,
0,0,0,0,0,0,0,0,0,0,0,0,0,0,0,0,0,0,0,0,0,0,0,0,0,0,0,0,
0,0,0,0,0,0,0,0,0,0,0,0,0,0,0,0,0,0,0,0,0,0,0,0,0,0,0,0,
0,0,0,0,0,0,0,0,0,0,0,0,0,0,0,0,0,0,0,0,0,0,0,0,0,0,0,0,
0,0,0,0,0,0,0,0,0,0,0,0,0,0,0,0,0,0,0,0,0,0,0,0,0,0,0,0,
0,0,0,0,0,0,0,0,0,0,0,0,0,0,0,0,0,0,0,0,0,0,0,0,0,0,0,0,
0,0,0,0,0,0,0,0,0,0,0,0,0,0,0,0,0,0,0,0,0,0,0,0,0,0,0,0,
0,0,0,0,0,0,0,0,0,0,0,0,0,0,0,0,0,0,0,0,0,0,0,0,0,0,0,0,
0,0,0,0,0,0,0,0,0,0,0,0,0,0,0,0,0,0,0,0,0,0,0,0,0,0,0,0,
0,0,0,0,0,0,0,0,0,0,0,0,0,0,0,0,0,0,0,0,0,0,0,0,0,0,0,0,
0,0,0,0,0,0,0,0,0,0,0,0,0,0,0,0,0,0,0,0,0,0,0,0,0,0,0,0,
0,0,0,0,0,0,0,0,0,0,0,0,0,0,0,0,0,0,0,0,0,0,0,0,0,0,0,0,
0,0,0,0,0,0,0,0,0,0,0,0,0,0,0,0,0,0,0,0,0,0,0,0,0,0,0,0,
0,0,0,0,0,0,0,0,0,0,0,0,0,0,0,0,0,0,0,0,0,0,0,0,0,0,0,0,
0,0,0,0,0,0,0,0,0,0,0,0,0,0,0,0,0,0,0,0,0,0,0,0,0,0,0,0,
0,0,0,0,0,0,0,0,0,0,0,0,0,0,0,0,0,0,0,0,0,0,0,0,0,0,0,0,
0,0,0,0,0,0,0,0,0,0,0,0,0,0,0,0,0,0,0,0,0,0,0,0,0,0,0,0
</data>
 </layer>
</map>
