<?xml version="1.0" encoding="UTF-8"?>
<map version="1.0" orientation="orthogonal" renderorder="right-up" width="70" height="55" tilewidth="16" tileheight="16" nextobjectid="52">
 <properties>
  <property name="bgm" value="18.-boss-bgm.mp3"/>
 </properties>
 <tileset firstgid="1" name="Tiles" tilewidth="16" tileheight="16" tilecount="1288" columns="46">
  <image source="../../Maps/Tiles_16x16.png" trans="ff00ff" width="736" height="448"/>
  <tile id="0">
   <properties>
    <property name="Type" value="Passable"/>
   </properties>
  </tile>
  <tile id="1">
   <properties>
    <property name="Type" value="Passable"/>
   </properties>
  </tile>
  <tile id="2">
   <properties>
    <property name="Type" value="Passable"/>
   </properties>
  </tile>
  <tile id="3">
   <properties>
    <property name="Type" value="Passable"/>
   </properties>
  </tile>
  <tile id="4">
   <properties>
    <property name="Type" value="Passable"/>
   </properties>
  </tile>
  <tile id="5">
   <properties>
    <property name="Type" value="Passable"/>
   </properties>
  </tile>
  <tile id="6">
   <properties>
    <property name="TransformToID" value="9"/>
    <property name="Type" value="Transform"/>
   </properties>
   <animation>
    <frame tileid="6" duration="500"/>
    <frame tileid="7" duration="100"/>
    <frame tileid="8" duration="100"/>
   </animation>
  </tile>
  <tile id="9">
   <properties>
    <property name="Type" value="Passable"/>
   </properties>
  </tile>
  <tile id="10">
   <animation>
    <frame tileid="10" duration="150"/>
    <frame tileid="11" duration="150"/>
    <frame tileid="12" duration="150"/>
    <frame tileid="13" duration="150"/>
   </animation>
  </tile>
  <tile id="23">
   <properties>
    <property name="Type" value="Block"/>
   </properties>
  </tile>
  <tile id="24">
   <properties>
    <property name="Type" value="Block"/>
   </properties>
  </tile>
  <tile id="25">
   <properties>
    <property name="Type" value="Block"/>
   </properties>
  </tile>
  <tile id="26">
   <properties>
    <property name="Type" value="Block"/>
   </properties>
  </tile>
  <tile id="27">
   <properties>
    <property name="Type" value="Block"/>
   </properties>
  </tile>
  <tile id="30">
   <properties>
    <property name="Type" value="Block"/>
   </properties>
  </tile>
  <tile id="31">
   <properties>
    <property name="Type" value="Block"/>
   </properties>
  </tile>
  <tile id="32">
   <properties>
    <property name="Type" value="Block"/>
   </properties>
  </tile>
  <tile id="33">
   <properties>
    <property name="Type" value="Block"/>
   </properties>
  </tile>
  <tile id="46">
   <properties>
    <property name="Type" value="Block"/>
   </properties>
  </tile>
  <tile id="47">
   <properties>
    <property name="ReadDialog" value="Estas rocas nos protegen, no las quites!"/>
    <property name="Type" value="ReadableBysSword"/>
   </properties>
  </tile>
  <tile id="48">
   <properties>
    <property name="Type" value="Block"/>
   </properties>
  </tile>
  <tile id="49">
   <properties>
    <property name="Type" value="Block"/>
   </properties>
  </tile>
  <tile id="50">
   <properties>
    <property name="Type" value="Block"/>
   </properties>
  </tile>
  <tile id="53">
   <properties>
    <property name="TransformToID" value="426"/>
    <property name="Type" value="Block"/>
   </properties>
  </tile>
  <tile id="54">
   <properties>
    <property name="Type" value="Block"/>
   </properties>
  </tile>
  <tile id="55">
   <properties>
    <property name="Type" value="Block"/>
   </properties>
  </tile>
  <tile id="56">
   <properties>
    <property name="Type" value="Block"/>
   </properties>
  </tile>
  <tile id="69">
   <properties>
    <property name="Type" value="Block"/>
   </properties>
  </tile>
  <tile id="70">
   <properties>
    <property name="Type" value="Passable"/>
   </properties>
  </tile>
  <tile id="71">
   <properties>
    <property name="Type" value="Passable"/>
   </properties>
  </tile>
  <tile id="72">
   <properties>
    <property name="Type" value="Block"/>
   </properties>
  </tile>
  <tile id="73">
   <properties>
    <property name="Type" value="Block"/>
   </properties>
  </tile>
  <tile id="92">
   <properties>
    <property name="Type" value="Block"/>
   </properties>
  </tile>
  <tile id="93">
   <properties>
    <property name="Type" value="Block"/>
   </properties>
  </tile>
  <tile id="94">
   <properties>
    <property name="Type" value="Block"/>
   </properties>
  </tile>
  <tile id="95">
   <properties>
    <property name="Type" value="Block"/>
   </properties>
  </tile>
  <tile id="96">
   <properties>
    <property name="Type" value="Block"/>
   </properties>
  </tile>
  <tile id="97">
   <properties>
    <property name="Type" value="Block"/>
   </properties>
  </tile>
  <tile id="98">
   <properties>
    <property name="Type" value="Block"/>
   </properties>
  </tile>
  <tile id="99">
   <properties>
    <property name="Type" value="Block"/>
   </properties>
  </tile>
  <tile id="100">
   <properties>
    <property name="Type" value="Block"/>
   </properties>
  </tile>
  <tile id="101">
   <properties>
    <property name="Type" value="Block"/>
   </properties>
  </tile>
  <tile id="102">
   <properties>
    <property name="Type" value="Block"/>
   </properties>
  </tile>
  <tile id="115">
   <properties>
    <property name="Type" value="Block"/>
   </properties>
  </tile>
  <tile id="116">
   <properties>
    <property name="Type" value="Block"/>
   </properties>
  </tile>
  <tile id="117">
   <properties>
    <property name="Type" value="Block"/>
   </properties>
  </tile>
  <tile id="118">
   <properties>
    <property name="Type" value="Block"/>
   </properties>
  </tile>
  <tile id="119">
   <properties>
    <property name="Type" value="Block"/>
   </properties>
  </tile>
  <tile id="120">
   <properties>
    <property name="Type" value="Block"/>
   </properties>
  </tile>
  <tile id="121">
   <properties>
    <property name="Type" value="Block"/>
   </properties>
  </tile>
  <tile id="122">
   <properties>
    <property name="Type" value="Block"/>
   </properties>
  </tile>
  <tile id="123">
   <properties>
    <property name="Type" value="Block"/>
   </properties>
  </tile>
  <tile id="124">
   <properties>
    <property name="Type" value="Block"/>
   </properties>
  </tile>
  <tile id="125">
   <properties>
    <property name="Type" value="Block"/>
   </properties>
  </tile>
  <tile id="138">
   <properties>
    <property name="Type" value="Passable"/>
   </properties>
  </tile>
  <tile id="139">
   <properties>
    <property name="Type" value="Passable"/>
   </properties>
  </tile>
  <tile id="140">
   <properties>
    <property name="Type" value="Passable"/>
   </properties>
  </tile>
  <tile id="141">
   <properties>
    <property name="Type" value="Passable"/>
   </properties>
  </tile>
  <tile id="142">
   <properties>
    <property name="Type" value="Passable"/>
   </properties>
  </tile>
  <tile id="161">
   <properties>
    <property name="Type" value="Passable"/>
   </properties>
  </tile>
  <tile id="162">
   <properties>
    <property name="Type" value="Passable"/>
   </properties>
  </tile>
  <tile id="163">
   <properties>
    <property name="Type" value="Passable"/>
   </properties>
  </tile>
  <tile id="164">
   <properties>
    <property name="Type" value="Passable"/>
   </properties>
  </tile>
  <tile id="165">
   <properties>
    <property name="Type" value="Passable"/>
   </properties>
  </tile>
  <tile id="171">
   <properties>
    <property name="Type" value="Block"/>
   </properties>
  </tile>
  <tile id="172">
   <properties>
    <property name="Type" value="Block"/>
   </properties>
  </tile>
  <tile id="173">
   <properties>
    <property name="Type" value="Block"/>
   </properties>
  </tile>
  <tile id="174">
   <properties>
    <property name="Type" value="Block"/>
   </properties>
  </tile>
  <tile id="175">
   <properties>
    <property name="Type" value="Block"/>
   </properties>
  </tile>
  <tile id="176">
   <properties>
    <property name="Type" value="Block"/>
   </properties>
  </tile>
  <tile id="184">
   <properties>
    <property name="Type" value="Block"/>
   </properties>
  </tile>
  <tile id="185">
   <properties>
    <property name="Type" value="Block"/>
   </properties>
  </tile>
  <tile id="186">
   <properties>
    <property name="Type" value="Block"/>
   </properties>
  </tile>
  <tile id="187">
   <properties>
    <property name="Type" value="Block"/>
   </properties>
  </tile>
  <tile id="188">
   <properties>
    <property name="Type" value="Block"/>
   </properties>
  </tile>
  <tile id="189">
   <properties>
    <property name="Type" value="Block"/>
   </properties>
  </tile>
  <tile id="190">
   <properties>
    <property name="Type" value="Block"/>
   </properties>
  </tile>
  <tile id="191">
   <properties>
    <property name="Type" value="Block"/>
   </properties>
  </tile>
  <tile id="192">
   <properties>
    <property name="Type" value="Block"/>
   </properties>
  </tile>
  <tile id="193">
   <properties>
    <property name="Type" value="Block"/>
   </properties>
  </tile>
  <tile id="194">
   <properties>
    <property name="Type" value="Block"/>
   </properties>
  </tile>
  <tile id="195">
   <properties>
    <property name="Type" value="Block"/>
   </properties>
  </tile>
  <tile id="196">
   <properties>
    <property name="Type" value="Block"/>
   </properties>
  </tile>
  <tile id="197">
   <properties>
    <property name="Type" value="Block"/>
   </properties>
  </tile>
  <tile id="198">
   <properties>
    <property name="Type" value="Block"/>
   </properties>
  </tile>
  <tile id="199">
   <properties>
    <property name="Type" value="Block"/>
   </properties>
  </tile>
  <tile id="207">
   <properties>
    <property name="Type" value="Passable"/>
   </properties>
  </tile>
  <tile id="208">
   <properties>
    <property name="Type" value="Passable"/>
   </properties>
  </tile>
  <tile id="209">
   <properties>
    <property name="Type" value="Passable"/>
   </properties>
  </tile>
  <tile id="210">
   <properties>
    <property name="Type" value="Passable"/>
   </properties>
  </tile>
  <tile id="211">
   <properties>
    <property name="Type" value="Block"/>
   </properties>
  </tile>
  <tile id="212">
   <properties>
    <property name="Type" value="Block"/>
   </properties>
  </tile>
  <tile id="213">
   <properties>
    <property name="Type" value="Block"/>
   </properties>
  </tile>
  <tile id="214">
   <properties>
    <property name="Type" value="Block"/>
   </properties>
  </tile>
  <tile id="215">
   <properties>
    <property name="Type" value="Block"/>
   </properties>
  </tile>
  <tile id="216">
   <properties>
    <property name="Type" value="Block"/>
   </properties>
  </tile>
  <tile id="217">
   <properties>
    <property name="Type" value="Block"/>
   </properties>
  </tile>
  <tile id="218">
   <properties>
    <property name="Type" value="Block"/>
   </properties>
  </tile>
  <tile id="219">
   <properties>
    <property name="Type" value="Block"/>
   </properties>
  </tile>
  <tile id="220">
   <properties>
    <property name="Type" value="Block"/>
   </properties>
  </tile>
  <tile id="221">
   <properties>
    <property name="Type" value="Block"/>
   </properties>
  </tile>
  <tile id="222">
   <properties>
    <property name="Type" value="Block"/>
   </properties>
  </tile>
  <tile id="230">
   <properties>
    <property name="Type" value="Block"/>
   </properties>
  </tile>
  <tile id="231">
   <properties>
    <property name="Type" value="Block"/>
   </properties>
  </tile>
  <tile id="232">
   <properties>
    <property name="Type" value="Block"/>
   </properties>
  </tile>
  <tile id="233">
   <properties>
    <property name="Type" value="Block"/>
   </properties>
  </tile>
  <tile id="234">
   <properties>
    <property name="Type" value="Block"/>
   </properties>
  </tile>
  <tile id="235">
   <properties>
    <property name="Type" value="Block"/>
   </properties>
  </tile>
  <tile id="236">
   <properties>
    <property name="Type" value="Block"/>
   </properties>
  </tile>
  <tile id="237">
   <properties>
    <property name="Type" value="Block"/>
   </properties>
  </tile>
  <tile id="238">
   <properties>
    <property name="Type" value="Block"/>
   </properties>
  </tile>
  <tile id="239">
   <properties>
    <property name="Type" value="Block"/>
   </properties>
  </tile>
  <tile id="240">
   <properties>
    <property name="Type" value="Block"/>
   </properties>
  </tile>
  <tile id="241">
   <properties>
    <property name="Type" value="Block"/>
   </properties>
  </tile>
  <tile id="242">
   <properties>
    <property name="Type" value="Block"/>
   </properties>
  </tile>
  <tile id="243">
   <properties>
    <property name="Type" value="Block"/>
   </properties>
  </tile>
  <tile id="244">
   <properties>
    <property name="Type" value="Block"/>
   </properties>
  </tile>
  <tile id="245">
   <properties>
    <property name="Type" value="Block"/>
   </properties>
  </tile>
  <tile id="253">
   <properties>
    <property name="Type" value="Block"/>
   </properties>
  </tile>
  <tile id="254">
   <properties>
    <property name="Type" value="Block"/>
   </properties>
  </tile>
  <tile id="255">
   <properties>
    <property name="Type" value="Block"/>
   </properties>
  </tile>
  <tile id="256">
   <properties>
    <property name="Type" value="Block"/>
   </properties>
  </tile>
  <tile id="257">
   <properties>
    <property name="Type" value="Block"/>
   </properties>
  </tile>
  <tile id="258">
   <properties>
    <property name="Type" value="Block"/>
   </properties>
  </tile>
  <tile id="259">
   <properties>
    <property name="Type" value="Block"/>
   </properties>
  </tile>
  <tile id="260">
   <properties>
    <property name="Type" value="Block"/>
   </properties>
  </tile>
  <tile id="261">
   <properties>
    <property name="Type" value="Block"/>
   </properties>
  </tile>
  <tile id="262">
   <properties>
    <property name="Type" value="Block"/>
   </properties>
  </tile>
  <tile id="263">
   <properties>
    <property name="Type" value="Block"/>
   </properties>
  </tile>
  <tile id="264">
   <properties>
    <property name="Type" value="Block"/>
   </properties>
  </tile>
  <tile id="265">
   <properties>
    <property name="Type" value="Block"/>
   </properties>
  </tile>
  <tile id="266">
   <properties>
    <property name="Type" value="Block"/>
   </properties>
  </tile>
  <tile id="267">
   <properties>
    <property name="Type" value="Block"/>
   </properties>
  </tile>
  <tile id="268">
   <properties>
    <property name="Type" value="Block"/>
   </properties>
  </tile>
  <tile id="276">
   <properties>
    <property name="Type" value="Block"/>
   </properties>
  </tile>
  <tile id="277">
   <properties>
    <property name="Type" value="Block"/>
   </properties>
  </tile>
  <tile id="278">
   <properties>
    <property name="Type" value="Block"/>
   </properties>
  </tile>
  <tile id="279">
   <properties>
    <property name="Type" value="Block"/>
   </properties>
  </tile>
  <tile id="280">
   <properties>
    <property name="Type" value="Block"/>
   </properties>
  </tile>
  <tile id="281">
   <properties>
    <property name="Type" value="Block"/>
   </properties>
  </tile>
  <tile id="282">
   <properties>
    <property name="Type" value="Block"/>
   </properties>
  </tile>
  <tile id="283">
   <properties>
    <property name="Type" value="Block"/>
   </properties>
  </tile>
  <tile id="284">
   <properties>
    <property name="Type" value="Block"/>
   </properties>
  </tile>
  <tile id="285">
   <properties>
    <property name="Type" value="Block"/>
   </properties>
  </tile>
  <tile id="286">
   <properties>
    <property name="Type" value="Block"/>
   </properties>
  </tile>
  <tile id="287">
   <properties>
    <property name="Type" value="Block"/>
   </properties>
  </tile>
  <tile id="288">
   <properties>
    <property name="Type" value="Passable"/>
   </properties>
  </tile>
  <tile id="289">
   <properties>
    <property name="Type" value="Passable"/>
   </properties>
  </tile>
  <tile id="290">
   <properties>
    <property name="Type" value="Block"/>
   </properties>
  </tile>
  <tile id="291">
   <properties>
    <property name="Type" value="Block"/>
   </properties>
  </tile>
  <tile id="299">
   <properties>
    <property name="Type" value="Passable"/>
   </properties>
  </tile>
  <tile id="300">
   <properties>
    <property name="Type" value="Passable"/>
   </properties>
  </tile>
  <tile id="301">
   <properties>
    <property name="Type" value="Passable"/>
   </properties>
  </tile>
  <tile id="302">
   <properties>
    <property name="Type" value="Passable"/>
   </properties>
  </tile>
  <tile id="303">
   <properties>
    <property name="Type" value="Block"/>
   </properties>
  </tile>
  <tile id="304">
   <properties>
    <property name="Type" value="Block"/>
   </properties>
  </tile>
  <tile id="305">
   <properties>
    <property name="Type" value="Block"/>
   </properties>
  </tile>
  <tile id="306">
   <properties>
    <property name="Type" value="Block"/>
   </properties>
  </tile>
  <tile id="307">
   <properties>
    <property name="Type" value="Block"/>
   </properties>
  </tile>
  <tile id="308">
   <properties>
    <property name="Type" value="Block"/>
   </properties>
  </tile>
  <tile id="309">
   <properties>
    <property name="Type" value="Passable"/>
   </properties>
  </tile>
  <tile id="310">
   <properties>
    <property name="Type" value="Block"/>
   </properties>
  </tile>
  <tile id="311">
   <properties>
    <property name="Type" value="Passable"/>
   </properties>
  </tile>
  <tile id="312">
   <properties>
    <property name="Type" value="Passable"/>
   </properties>
  </tile>
  <tile id="313">
   <properties>
    <property name="Type" value="Block"/>
   </properties>
  </tile>
  <tile id="314">
   <properties>
    <property name="Type" value="Passable"/>
   </properties>
  </tile>
  <tile id="322">
   <properties>
    <property name="Type" value="Block"/>
   </properties>
  </tile>
  <tile id="323">
   <properties>
    <property name="Type" value="Block"/>
   </properties>
  </tile>
  <tile id="324">
   <properties>
    <property name="Type" value="Block"/>
   </properties>
  </tile>
  <tile id="325">
   <properties>
    <property name="Type" value="Block"/>
   </properties>
  </tile>
  <tile id="326">
   <properties>
    <property name="Type" value="Block"/>
   </properties>
  </tile>
  <tile id="368">
   <properties>
    <property name="Type" value="Block"/>
   </properties>
  </tile>
  <tile id="369">
   <properties>
    <property name="Type" value="Passable"/>
   </properties>
  </tile>
  <tile id="370">
   <properties>
    <property name="Type" value="Passable"/>
   </properties>
  </tile>
  <tile id="371">
   <properties>
    <property name="Type" value="Passable"/>
   </properties>
  </tile>
  <tile id="372">
   <properties>
    <property name="Type" value="Block"/>
   </properties>
  </tile>
  <tile id="414">
   <properties>
    <property name="Type" value="Block"/>
   </properties>
  </tile>
  <tile id="415">
   <properties>
    <property name="Type" value="Block"/>
   </properties>
  </tile>
  <tile id="416">
   <properties>
    <property name="Type" value="Block"/>
   </properties>
  </tile>
  <tile id="417">
   <properties>
    <property name="Type" value="Block"/>
   </properties>
  </tile>
  <tile id="418">
   <properties>
    <property name="Type" value="Block"/>
   </properties>
  </tile>
  <tile id="419">
   <properties>
    <property name="Type" value="Block"/>
   </properties>
  </tile>
  <tile id="420">
   <properties>
    <property name="Type" value="Block"/>
   </properties>
  </tile>
  <tile id="421">
   <properties>
    <property name="Type" value="Block"/>
   </properties>
  </tile>
  <tile id="422">
   <properties>
    <property name="Type" value="Block"/>
   </properties>
  </tile>
  <tile id="423">
   <properties>
    <property name="Type" value="Block"/>
   </properties>
  </tile>
  <tile id="424">
   <properties>
    <property name="Type" value="Block"/>
   </properties>
  </tile>
  <tile id="425">
   <properties>
    <property name="Type" value="Block"/>
   </properties>
  </tile>
  <tile id="426">
   <properties>
    <property name="Type" value="Block"/>
   </properties>
  </tile>
  <tile id="427">
   <properties>
    <property name="Type" value="Block"/>
   </properties>
  </tile>
  <tile id="428">
   <properties>
    <property name="Type" value="Block"/>
   </properties>
  </tile>
  <tile id="429">
   <properties>
    <property name="Type" value="Block"/>
   </properties>
  </tile>
  <tile id="430">
   <properties>
    <property name="Type" value="Block"/>
   </properties>
  </tile>
  <tile id="431">
   <properties>
    <property name="Type" value="Block"/>
   </properties>
  </tile>
  <tile id="460">
   <properties>
    <property name="Type" value="Block"/>
   </properties>
  </tile>
  <tile id="461">
   <properties>
    <property name="Type" value="Block"/>
   </properties>
  </tile>
  <tile id="462">
   <properties>
    <property name="Type" value="Block"/>
   </properties>
  </tile>
  <tile id="463">
   <properties>
    <property name="Type" value="Block"/>
   </properties>
  </tile>
  <tile id="464">
   <properties>
    <property name="Type" value="Block"/>
   </properties>
  </tile>
  <tile id="465">
   <properties>
    <property name="Type" value="Block"/>
   </properties>
  </tile>
  <tile id="466">
   <properties>
    <property name="Type" value="Block"/>
   </properties>
  </tile>
  <tile id="467">
   <properties>
    <property name="Type" value="Block"/>
   </properties>
  </tile>
  <tile id="468">
   <properties>
    <property name="Type" value="Block"/>
   </properties>
  </tile>
  <tile id="469">
   <properties>
    <property name="Type" value="Block"/>
   </properties>
  </tile>
  <tile id="470">
   <properties>
    <property name="Type" value="Block"/>
   </properties>
  </tile>
  <tile id="471">
   <properties>
    <property name="Type" value="Block"/>
   </properties>
  </tile>
  <tile id="472">
   <properties>
    <property name="Type" value="Block"/>
   </properties>
  </tile>
  <tile id="473">
   <properties>
    <property name="Type" value="Block"/>
   </properties>
  </tile>
  <tile id="474">
   <properties>
    <property name="Type" value="Block"/>
   </properties>
  </tile>
  <tile id="475">
   <properties>
    <property name="Type" value="Block"/>
   </properties>
  </tile>
  <tile id="476">
   <properties>
    <property name="Type" value="Block"/>
   </properties>
  </tile>
  <tile id="477">
   <properties>
    <property name="Type" value="Block"/>
   </properties>
  </tile>
  <tile id="506">
   <properties>
    <property name="Type" value="Block"/>
   </properties>
  </tile>
  <tile id="507">
   <properties>
    <property name="Type" value="Block"/>
   </properties>
  </tile>
  <tile id="508">
   <properties>
    <property name="Type" value="Block"/>
   </properties>
  </tile>
  <tile id="509">
   <properties>
    <property name="Type" value="Block"/>
   </properties>
  </tile>
  <tile id="510">
   <properties>
    <property name="Type" value="Block"/>
   </properties>
  </tile>
  <tile id="511">
   <properties>
    <property name="Type" value="Block"/>
   </properties>
  </tile>
  <tile id="512">
   <properties>
    <property name="Type" value="Block"/>
   </properties>
  </tile>
  <tile id="513">
   <properties>
    <property name="Type" value="Block"/>
   </properties>
  </tile>
  <tile id="514">
   <properties>
    <property name="Type" value="Block"/>
   </properties>
  </tile>
  <tile id="515">
   <properties>
    <property name="Type" value="Block"/>
   </properties>
  </tile>
  <tile id="516">
   <properties>
    <property name="Type" value="Block"/>
   </properties>
  </tile>
  <tile id="517">
   <properties>
    <property name="Type" value="Block"/>
   </properties>
  </tile>
  <tile id="518">
   <properties>
    <property name="Type" value="Block"/>
   </properties>
  </tile>
  <tile id="519">
   <properties>
    <property name="Type" value="Block"/>
   </properties>
  </tile>
  <tile id="520">
   <properties>
    <property name="Type" value="Block"/>
   </properties>
  </tile>
  <tile id="521">
   <properties>
    <property name="Type" value="Block"/>
   </properties>
  </tile>
  <tile id="522">
   <properties>
    <property name="Type" value="Block"/>
   </properties>
  </tile>
  <tile id="523">
   <properties>
    <property name="Type" value="Block"/>
   </properties>
  </tile>
  <tile id="552">
   <properties>
    <property name="Type" value="Block"/>
   </properties>
  </tile>
  <tile id="553">
   <properties>
    <property name="Type" value="Block"/>
   </properties>
  </tile>
  <tile id="554">
   <properties>
    <property name="Type" value="Block"/>
   </properties>
  </tile>
  <tile id="555">
   <properties>
    <property name="Type" value="Block"/>
   </properties>
  </tile>
  <tile id="556">
   <properties>
    <property name="Type" value="Block"/>
   </properties>
  </tile>
  <tile id="557">
   <properties>
    <property name="Type" value="Block"/>
   </properties>
  </tile>
  <tile id="558">
   <properties>
    <property name="Type" value="Block"/>
   </properties>
  </tile>
  <tile id="559">
   <properties>
    <property name="Type" value="Block"/>
   </properties>
  </tile>
  <tile id="560">
   <properties>
    <property name="Type" value="Block"/>
   </properties>
  </tile>
  <tile id="561">
   <properties>
    <property name="Type" value="Block"/>
   </properties>
  </tile>
  <tile id="562">
   <properties>
    <property name="Type" value="Block"/>
   </properties>
  </tile>
  <tile id="563">
   <properties>
    <property name="Type" value="Block"/>
   </properties>
  </tile>
  <tile id="564">
   <properties>
    <property name="Type" value="Block"/>
   </properties>
  </tile>
  <tile id="565">
   <properties>
    <property name="Type" value="Block"/>
   </properties>
  </tile>
  <tile id="566">
   <properties>
    <property name="Type" value="Passable"/>
   </properties>
  </tile>
  <tile id="567">
   <properties>
    <property name="Type" value="Block"/>
   </properties>
  </tile>
  <tile id="568">
   <properties>
    <property name="Type" value="Block"/>
   </properties>
  </tile>
  <tile id="569">
   <properties>
    <property name="Type" value="Block"/>
   </properties>
  </tile>
  <tile id="598">
   <properties>
    <property name="Type" value="Block"/>
   </properties>
  </tile>
  <tile id="599">
   <properties>
    <property name="Type" value="Block"/>
   </properties>
  </tile>
  <tile id="600">
   <properties>
    <property name="Type" value="Block"/>
   </properties>
  </tile>
  <tile id="601">
   <properties>
    <property name="Type" value="Block"/>
   </properties>
  </tile>
  <tile id="602">
   <properties>
    <property name="Type" value="Block"/>
   </properties>
  </tile>
  <tile id="603">
   <properties>
    <property name="Type" value="Block"/>
   </properties>
  </tile>
  <tile id="604">
   <properties>
    <property name="Type" value="Block"/>
   </properties>
  </tile>
  <tile id="605">
   <properties>
    <property name="Play" value="casse.wav"/>
    <property name="TransformToID" value="566"/>
    <property name="Type" value="Transform"/>
   </properties>
  </tile>
  <tile id="606">
   <properties>
    <property name="Type" value="Block"/>
   </properties>
  </tile>
  <tile id="607">
   <properties>
    <property name="Type" value="Block"/>
   </properties>
  </tile>
  <tile id="608">
   <properties>
    <property name="Type" value="Block"/>
   </properties>
  </tile>
  <tile id="609">
   <properties>
    <property name="Type" value="Block"/>
   </properties>
  </tile>
  <tile id="610">
   <properties>
    <property name="Type" value="Block"/>
   </properties>
  </tile>
  <tile id="611">
   <properties>
    <property name="Type" value="Passable"/>
   </properties>
  </tile>
  <tile id="612">
   <properties>
    <property name="Type" value="Passable"/>
   </properties>
  </tile>
  <tile id="613">
   <properties>
    <property name="Type" value="Passable"/>
   </properties>
  </tile>
  <tile id="614">
   <properties>
    <property name="Type" value="Block"/>
   </properties>
  </tile>
  <tile id="615">
   <properties>
    <property name="Type" value="Block"/>
   </properties>
  </tile>
  <tile id="644">
   <properties>
    <property name="Type" value="Block"/>
   </properties>
  </tile>
  <tile id="647">
   <properties>
    <property name="Type" value="Block"/>
   </properties>
  </tile>
  <tile id="648">
   <properties>
    <property name="Type" value="Block"/>
   </properties>
  </tile>
  <tile id="649">
   <properties>
    <property name="Type" value="Block"/>
   </properties>
  </tile>
  <tile id="650">
   <properties>
    <property name="Type" value="Block"/>
   </properties>
  </tile>
  <tile id="651">
   <properties>
    <property name="Type" value="Block"/>
   </properties>
  </tile>
  <tile id="652">
   <properties>
    <property name="Type" value="Block"/>
   </properties>
  </tile>
  <tile id="653">
   <properties>
    <property name="Type" value="Block"/>
   </properties>
  </tile>
  <tile id="654">
   <properties>
    <property name="Type" value="Block"/>
   </properties>
  </tile>
  <tile id="655">
   <properties>
    <property name="Type" value="Block"/>
   </properties>
  </tile>
  <tile id="656">
   <properties>
    <property name="Type" value="Block"/>
   </properties>
  </tile>
  <tile id="657">
   <properties>
    <property name="Type" value="Block"/>
   </properties>
  </tile>
  <tile id="690">
   <properties>
    <property name="Type" value="Block"/>
   </properties>
  </tile>
  <tile id="693">
   <properties>
    <property name="Type" value="Block"/>
   </properties>
  </tile>
  <tile id="694">
   <properties>
    <property name="Type" value="Block"/>
   </properties>
  </tile>
  <tile id="695">
   <properties>
    <property name="Type" value="Block"/>
   </properties>
  </tile>
  <tile id="696">
   <properties>
    <property name="Type" value="Block"/>
   </properties>
  </tile>
  <tile id="697">
   <properties>
    <property name="Type" value="Block"/>
   </properties>
  </tile>
  <tile id="698">
   <properties>
    <property name="Type" value="Block"/>
   </properties>
  </tile>
  <tile id="699">
   <properties>
    <property name="Type" value="Block"/>
   </properties>
  </tile>
  <tile id="700">
   <properties>
    <property name="Type" value="Block"/>
   </properties>
  </tile>
  <tile id="701">
   <properties>
    <property name="Type" value="Block"/>
   </properties>
  </tile>
  <tile id="702">
   <properties>
    <property name="Type" value="Block"/>
   </properties>
  </tile>
  <tile id="703">
   <properties>
    <property name="Type" value="Block"/>
   </properties>
  </tile>
  <tile id="739">
   <properties>
    <property name="Type" value="Block"/>
   </properties>
  </tile>
  <tile id="740">
   <properties>
    <property name="Type" value="Block"/>
   </properties>
  </tile>
  <tile id="741">
   <properties>
    <property name="Type" value="Block"/>
   </properties>
  </tile>
  <tile id="742">
   <properties>
    <property name="Type" value="Block"/>
   </properties>
  </tile>
  <tile id="743">
   <properties>
    <property name="Type" value="Block"/>
   </properties>
  </tile>
  <tile id="744">
   <properties>
    <property name="Type" value="Block"/>
   </properties>
  </tile>
  <tile id="745">
   <properties>
    <property name="Type" value="Block"/>
   </properties>
  </tile>
  <tile id="746">
   <properties>
    <property name="Type" value="Block"/>
   </properties>
  </tile>
  <tile id="747">
   <properties>
    <property name="Type" value="Block"/>
   </properties>
  </tile>
  <tile id="748">
   <properties>
    <property name="Type" value="Block"/>
   </properties>
  </tile>
  <tile id="749">
   <properties>
    <property name="Type" value="Block"/>
   </properties>
  </tile>
  <tile id="786">
   <properties>
    <property name="Type" value="Block"/>
   </properties>
  </tile>
  <tile id="787">
   <properties>
    <property name="Type" value="Block"/>
   </properties>
  </tile>
  <tile id="788">
   <properties>
    <property name="Type" value="Block"/>
   </properties>
  </tile>
  <tile id="789">
   <properties>
    <property name="Type" value="Block"/>
   </properties>
  </tile>
  <tile id="790">
   <properties>
    <property name="Type" value="Block"/>
   </properties>
  </tile>
  <tile id="791">
   <properties>
    <property name="Type" value="Block"/>
   </properties>
  </tile>
  <tile id="792">
   <properties>
    <property name="Type" value="Block"/>
   </properties>
  </tile>
  <tile id="793">
   <properties>
    <property name="Type" value="Block"/>
   </properties>
  </tile>
  <tile id="794">
   <properties>
    <property name="Type" value="Block"/>
   </properties>
  </tile>
  <tile id="795">
   <properties>
    <property name="Type" value="Block"/>
   </properties>
  </tile>
  <tile id="832">
   <properties>
    <property name="Type" value="Block"/>
   </properties>
  </tile>
  <tile id="833">
   <properties>
    <property name="Type" value="Block"/>
   </properties>
  </tile>
  <tile id="834">
   <properties>
    <property name="Type" value="Block"/>
   </properties>
  </tile>
  <tile id="835">
   <properties>
    <property name="Type" value="Block"/>
   </properties>
  </tile>
  <tile id="836">
   <properties>
    <property name="Type" value="Block"/>
   </properties>
  </tile>
  <tile id="837">
   <properties>
    <property name="Type" value="Block"/>
   </properties>
  </tile>
  <tile id="838">
   <properties>
    <property name="Type" value="Block"/>
   </properties>
  </tile>
  <tile id="839">
   <properties>
    <property name="Type" value="Block"/>
   </properties>
  </tile>
  <tile id="840">
   <properties>
    <property name="Type" value="Passable"/>
   </properties>
  </tile>
  <tile id="878">
   <properties>
    <property name="Type" value="Block"/>
   </properties>
  </tile>
  <tile id="879">
   <properties>
    <property name="Type" value="Block"/>
   </properties>
  </tile>
  <tile id="880">
   <properties>
    <property name="Type" value="Block"/>
   </properties>
  </tile>
  <tile id="881">
   <properties>
    <property name="Type" value="Block"/>
   </properties>
  </tile>
  <tile id="882">
   <properties>
    <property name="Type" value="Block"/>
   </properties>
  </tile>
  <tile id="883">
   <properties>
    <property name="Type" value="Block"/>
   </properties>
  </tile>
  <tile id="884">
   <properties>
    <property name="Type" value="Block"/>
   </properties>
  </tile>
  <tile id="885">
   <properties>
    <property name="Type" value="Block"/>
   </properties>
  </tile>
  <tile id="886">
   <properties>
    <property name="Type" value="Passable"/>
   </properties>
  </tile>
  <tile id="924">
   <properties>
    <property name="Type" value="Block"/>
   </properties>
  </tile>
  <tile id="925">
   <properties>
    <property name="Type" value="Block"/>
   </properties>
  </tile>
  <tile id="926">
   <properties>
    <property name="Type" value="Block"/>
   </properties>
  </tile>
  <tile id="927">
   <properties>
    <property name="Type" value="Block"/>
   </properties>
  </tile>
  <tile id="928">
   <properties>
    <property name="Type" value="Block"/>
   </properties>
  </tile>
  <tile id="929">
   <properties>
    <property name="Type" value="Block"/>
   </properties>
  </tile>
  <tile id="930">
   <properties>
    <property name="Type" value="Block"/>
   </properties>
  </tile>
  <tile id="931">
   <properties>
    <property name="Type" value="Block"/>
   </properties>
  </tile>
  <tile id="932">
   <properties>
    <property name="Type" value="Passable"/>
   </properties>
  </tile>
  <tile id="970">
   <properties>
    <property name="Type" value="Block"/>
   </properties>
  </tile>
  <tile id="971">
   <properties>
    <property name="Type" value="Block"/>
   </properties>
  </tile>
  <tile id="972">
   <properties>
    <property name="Type" value="Block"/>
   </properties>
  </tile>
  <tile id="973">
   <properties>
    <property name="Type" value="Block"/>
   </properties>
  </tile>
  <tile id="974">
   <properties>
    <property name="Type" value="Block"/>
   </properties>
  </tile>
  <tile id="975">
   <properties>
    <property name="Type" value="Block"/>
   </properties>
  </tile>
  <tile id="976">
   <properties>
    <property name="Type" value="Block"/>
   </properties>
  </tile>
  <tile id="977">
   <properties>
    <property name="Type" value="Block"/>
   </properties>
  </tile>
  <tile id="1243">
   <properties>
    <property name="Play" value="casse.wav"/>
    <property name="TeleportTo" value="HeroHouse.tmx"/>
    <property name="TeleportX" value="14"/>
    <property name="TeleportY" value="19"/>
    <property name="Type" value="Teleport"/>
   </properties>
  </tile>
  <tile id="1244">
   <properties>
    <property name="Play" value="casse.wav"/>
    <property name="TeleportTo" value="Church.tmx"/>
    <property name="TeleportX" value="14"/>
    <property name="TeleportY" value="19"/>
    <property name="Type" value="Teleport"/>
   </properties>
  </tile>
 </tileset>
 <tileset firstgid="1289" name="Enemies" tilewidth="19" tileheight="21" tilecount="726" columns="33">
  <image source="../../Enemies/EnemiesMatrix.png" trans="ff00ff" width="640" height="480"/>
  <tile id="0">
   <properties>
    <property name="Type" value="BunnyEnemy"/>
   </properties>
  </tile>
  <tile id="33">
   <properties>
    <property name="Type" value="Hero"/>
   </properties>
  </tile>
  <tile id="66">
   <properties>
    <property name="Speed" value="0.8"/>
    <property name="Type" value="GreenSoldier"/>
   </properties>
  </tile>
  <tile id="99">
   <properties>
    <property name="Type" value="EyeBoss"/>
   </properties>
  </tile>
 </tileset>
 <layer name="BaseLayer" width="70" height="55">
  <data encoding="csv">
6,6,6,6,6,6,6,6,6,6,6,6,6,6,6,6,6,6,6,6,6,6,6,6,6,6,6,6,6,6,6,6,6,6,6,6,6,6,6,6,6,6,6,6,6,6,6,6,6,6,6,6,6,6,6,6,6,6,6,6,6,6,6,6,6,6,6,6,6,6,
6,6,6,6,6,6,6,6,6,6,6,6,6,6,6,6,6,6,6,6,6,6,6,6,6,6,6,6,6,6,6,6,6,6,6,6,6,6,6,6,6,6,6,6,6,6,6,6,6,6,6,6,6,6,6,6,6,6,6,6,6,6,6,6,6,6,6,6,6,6,
6,6,6,6,6,6,6,6,6,6,6,6,6,6,6,6,6,6,6,6,6,6,6,6,6,6,6,6,6,6,6,6,6,6,6,6,6,6,6,6,6,6,6,6,6,6,6,6,6,6,6,6,6,6,6,6,6,6,6,6,6,6,6,6,6,6,6,6,6,6,
6,6,6,6,6,6,6,6,6,6,6,6,6,6,6,6,6,6,6,6,6,6,6,6,6,6,6,6,6,6,6,6,6,6,6,6,6,6,6,6,6,6,6,6,6,6,6,6,6,6,6,6,6,6,6,6,6,6,6,6,6,6,6,6,6,6,6,6,6,6,
6,6,6,6,6,6,6,6,6,6,6,6,6,6,6,6,6,6,6,6,6,6,6,6,6,6,6,6,6,6,6,6,6,6,6,6,6,6,6,6,6,6,6,6,6,6,6,6,6,6,6,6,6,6,6,6,6,6,6,6,6,6,6,6,6,6,6,6,6,6,
6,6,6,6,6,6,6,6,6,6,6,6,6,6,6,6,6,6,6,6,6,6,6,6,6,6,6,6,6,6,6,6,6,6,6,6,6,6,6,6,6,6,6,6,6,6,6,6,6,6,6,6,6,6,6,6,6,6,6,6,6,6,6,6,6,6,6,6,6,6,
6,6,6,6,6,6,6,6,6,6,6,6,6,6,6,6,6,6,6,6,6,6,6,6,6,6,6,6,6,6,6,6,6,6,6,6,6,6,6,6,6,6,6,6,6,6,6,6,6,6,6,6,6,6,6,6,6,6,6,6,6,6,6,6,6,6,6,6,6,6,
6,6,6,6,6,6,6,6,6,6,6,6,6,6,6,6,6,6,6,6,6,6,6,6,6,6,6,6,6,6,6,6,6,6,6,6,6,6,6,6,6,6,6,6,6,6,6,6,6,6,6,6,6,6,6,6,6,6,6,6,6,6,6,6,6,6,6,6,6,6,
6,6,6,6,6,6,6,6,6,6,6,6,6,6,6,6,6,6,6,6,6,6,6,6,6,6,6,6,6,6,6,6,6,6,6,6,6,6,6,6,6,6,6,6,6,6,6,6,6,6,6,6,6,6,6,6,6,6,6,6,6,6,6,6,6,6,6,6,6,6,
6,6,6,6,6,6,6,6,6,6,6,6,6,6,6,6,6,6,6,6,6,6,6,6,6,6,6,6,6,6,6,6,6,6,6,6,6,6,6,6,6,6,6,6,6,6,6,6,6,6,6,6,6,6,6,6,6,6,6,6,6,6,6,6,6,6,6,6,6,6,
6,6,6,6,6,6,6,6,6,6,6,6,6,6,6,6,6,6,6,6,6,6,6,6,6,6,6,6,6,6,6,6,6,6,6,6,6,6,6,6,6,6,6,6,6,6,6,6,6,6,6,6,6,6,6,6,6,6,6,6,6,6,6,6,6,6,6,6,6,6,
6,6,6,6,6,6,6,6,6,6,6,6,6,6,6,6,6,6,6,6,6,6,6,6,6,6,6,6,6,6,6,6,6,6,6,6,6,6,6,6,6,6,6,6,6,6,6,6,6,6,6,6,6,6,6,6,6,6,6,6,6,6,6,6,6,6,6,6,6,6,
6,6,6,6,6,6,6,6,6,6,6,6,6,6,6,6,6,6,6,6,6,6,6,6,6,6,6,6,6,6,6,6,6,6,6,6,6,6,6,6,6,6,6,6,6,6,6,6,6,6,6,6,6,6,6,6,6,6,6,6,6,6,6,6,6,6,6,6,6,6,
6,6,6,6,6,6,6,6,6,6,6,6,6,6,6,6,6,6,6,6,6,6,6,6,6,6,6,6,6,6,6,6,6,6,6,6,6,6,6,6,6,6,6,6,6,6,6,6,6,6,6,6,6,6,6,6,6,6,6,6,6,6,6,6,6,6,6,6,6,6,
6,6,6,6,6,6,6,6,6,6,6,6,6,6,6,6,6,6,6,6,6,6,6,6,6,6,6,6,6,6,6,6,6,6,6,6,6,6,6,6,6,6,6,6,6,6,6,6,6,6,6,6,6,6,6,6,6,6,6,6,6,6,6,6,6,6,6,6,6,6,
6,6,6,6,6,6,6,6,6,6,6,6,6,6,6,6,6,6,6,6,6,6,6,6,6,6,6,6,6,6,6,6,6,6,6,6,6,6,6,6,6,6,6,6,6,6,6,6,6,6,6,6,6,6,6,6,6,6,6,6,6,6,6,6,6,6,6,6,6,6,
6,6,6,6,6,6,6,6,6,6,6,6,6,6,6,6,6,6,6,6,6,6,6,6,6,6,6,6,6,6,6,6,6,6,6,6,6,6,6,6,6,6,6,6,6,6,6,6,6,6,6,6,6,6,6,6,6,6,6,6,6,6,6,6,6,6,6,6,6,6,
6,6,6,6,6,6,6,6,6,6,6,6,6,6,6,6,6,6,6,6,6,6,6,6,6,6,6,6,6,6,6,6,6,6,6,6,6,6,6,6,6,6,6,6,6,6,6,6,6,6,6,6,6,6,6,6,6,6,6,6,6,6,6,6,6,6,6,6,6,6,
6,6,6,6,6,6,6,6,6,6,6,6,6,6,6,6,6,6,6,6,6,6,6,6,6,6,6,6,6,6,6,6,6,6,6,6,6,6,6,6,6,6,6,6,6,6,6,6,6,6,6,6,6,6,6,6,6,6,6,6,6,6,6,6,6,6,6,6,6,6,
6,6,6,6,6,6,6,6,6,6,6,6,6,6,6,6,6,6,6,6,6,6,6,6,6,6,6,6,6,6,6,6,6,6,6,6,6,6,6,6,6,6,6,6,6,6,6,6,6,6,6,6,6,6,6,6,6,6,6,6,6,6,6,6,6,6,6,6,6,6,
6,6,6,6,6,6,6,6,6,6,6,6,6,6,6,6,6,6,6,6,6,6,6,6,6,6,6,6,6,6,6,6,6,6,6,6,6,6,6,6,6,6,6,6,6,6,6,6,6,6,6,6,6,6,6,6,6,6,6,6,6,6,6,6,6,6,6,6,6,6,
6,6,6,6,6,6,6,6,6,6,6,6,6,6,6,6,6,6,6,6,6,6,6,6,6,6,6,6,6,6,6,6,6,6,6,6,6,6,6,6,6,6,6,6,6,6,6,6,6,6,6,6,6,6,6,6,6,6,6,6,6,6,6,6,6,6,6,6,6,6,
6,6,6,6,6,6,6,6,6,6,6,6,6,6,6,6,6,6,6,6,6,6,6,6,6,6,6,6,6,6,6,6,6,6,6,6,6,6,6,6,6,6,6,6,6,6,6,6,6,6,6,6,6,6,6,6,6,6,6,6,6,6,6,6,6,6,6,6,6,6,
6,6,6,6,6,6,6,6,6,6,6,6,6,6,6,6,6,6,6,6,6,6,6,6,6,6,6,6,6,6,6,6,6,6,6,6,6,6,6,6,6,6,6,6,6,6,6,6,6,6,6,6,6,6,6,6,6,6,6,6,6,6,6,6,6,6,6,6,6,6,
6,6,6,6,6,6,6,6,6,6,6,6,6,6,6,6,6,6,6,6,6,6,6,6,6,6,6,6,6,6,6,6,6,6,6,6,6,6,6,6,6,6,6,6,6,6,6,6,6,6,6,6,6,6,6,6,6,6,6,6,6,6,6,6,6,6,6,6,6,6,
6,6,6,6,6,6,6,6,6,6,6,6,6,6,6,6,6,6,6,6,6,6,6,6,6,6,6,6,6,6,6,6,6,6,6,6,6,6,6,6,6,6,6,6,6,6,6,6,6,6,6,6,6,6,6,6,6,6,6,6,6,6,6,6,6,6,6,6,6,6,
6,6,6,6,6,6,6,6,6,6,6,6,6,6,6,6,6,6,6,6,6,6,6,6,6,6,6,6,6,6,6,6,6,6,6,6,6,6,6,6,6,6,6,6,6,6,6,6,6,6,6,6,6,6,6,6,6,6,6,6,6,6,6,6,6,6,6,6,6,6,
6,6,6,6,6,6,6,6,6,6,6,6,6,6,6,6,6,6,6,6,6,6,6,6,6,6,6,6,6,6,6,6,6,6,6,6,6,6,6,6,6,6,6,6,6,6,6,6,6,6,6,6,6,6,6,6,6,6,6,6,6,6,6,6,6,6,6,6,6,6,
6,6,6,6,6,6,6,6,6,6,6,6,6,6,6,6,6,6,6,6,6,6,6,6,6,6,6,6,6,6,6,6,6,6,6,6,6,6,6,6,6,6,6,6,6,6,6,6,6,6,6,6,6,6,6,6,6,6,6,6,6,6,6,6,6,6,6,6,6,6,
6,6,6,6,6,6,6,6,6,6,6,6,6,6,6,6,6,6,6,6,6,6,6,6,6,6,6,6,6,6,6,6,6,6,6,6,6,6,6,6,6,6,6,6,6,6,6,6,6,6,6,6,6,6,6,6,6,6,6,6,6,6,6,6,6,6,6,6,6,6,
6,6,6,6,6,6,6,6,6,6,6,6,6,6,6,6,6,6,6,6,6,6,6,6,6,6,6,6,6,6,6,6,6,6,6,6,6,6,6,6,6,6,6,6,6,6,6,6,6,6,6,6,6,6,6,6,6,6,6,6,6,6,6,6,6,6,6,6,6,6,
6,6,6,6,6,6,6,6,6,6,6,6,6,6,6,6,6,6,6,6,6,6,6,6,6,6,6,6,6,6,6,6,6,6,6,6,6,6,6,6,6,6,6,6,6,6,6,6,6,6,6,6,6,6,6,6,6,6,6,6,6,6,6,6,6,6,6,6,6,6,
6,6,6,6,6,6,6,6,6,6,6,6,6,6,6,6,6,6,6,6,6,6,6,6,6,6,6,6,6,6,6,6,6,6,6,6,6,6,6,6,6,6,6,6,6,6,6,6,6,6,6,6,6,6,6,6,6,6,6,6,6,6,6,6,6,6,6,6,6,6,
6,6,6,6,6,6,6,6,6,6,6,6,6,6,6,6,6,6,6,6,6,6,6,6,6,6,6,6,6,6,6,6,6,6,6,6,6,6,6,6,6,6,6,6,6,6,6,6,6,6,6,6,6,6,6,6,6,6,6,6,6,6,6,6,6,6,6,6,6,6,
6,6,6,6,6,6,6,6,6,6,6,6,6,6,6,6,6,6,6,6,6,6,6,6,6,6,6,6,6,6,6,6,6,6,6,6,6,6,6,6,6,6,6,6,6,6,6,6,6,6,6,6,6,6,6,6,6,6,6,6,6,6,6,6,6,6,6,6,6,6,
6,6,6,6,6,6,6,6,6,6,6,6,6,6,6,6,6,6,6,6,6,6,6,6,6,6,6,6,6,6,6,6,6,6,6,6,6,6,6,6,6,6,6,6,6,6,6,6,6,6,6,6,6,6,6,6,6,6,6,6,6,6,6,6,6,6,6,6,6,6,
6,6,6,6,6,6,6,6,6,6,6,6,6,6,6,6,6,6,6,6,6,6,6,6,6,6,6,6,6,6,6,6,6,6,6,6,6,6,6,6,6,6,6,6,6,6,6,6,6,6,6,6,6,6,6,6,6,6,6,6,6,6,6,6,6,6,6,6,6,6,
6,6,6,6,6,6,6,6,6,6,6,6,6,6,6,6,6,6,6,6,6,6,6,6,6,6,6,6,6,6,6,6,6,6,6,6,6,6,6,6,6,6,6,6,6,6,6,6,6,6,6,6,6,6,6,6,6,6,6,6,6,6,6,6,6,6,6,6,6,6,
6,6,6,6,6,6,6,6,6,6,6,6,6,6,6,6,6,6,6,6,6,6,6,6,6,6,6,6,6,6,6,6,6,6,6,6,6,6,6,6,6,6,6,6,6,6,6,6,6,6,6,6,6,6,6,6,6,6,6,6,6,6,6,6,6,6,6,6,6,6,
6,6,6,6,6,6,6,6,6,6,6,6,6,6,6,6,6,6,6,6,6,6,6,6,6,6,6,6,6,6,6,6,6,6,6,6,6,6,6,6,6,6,6,6,6,6,6,6,6,6,6,6,6,6,6,6,6,6,6,6,6,6,6,6,6,6,6,6,6,6,
6,6,6,6,6,6,6,6,6,6,6,6,6,6,6,6,6,6,6,6,6,6,6,6,6,6,6,6,6,6,6,6,6,6,6,6,6,6,6,6,6,6,6,6,6,6,6,6,6,6,6,6,6,6,6,6,6,6,6,6,6,6,6,6,6,6,6,6,6,6,
6,6,6,6,6,6,6,6,6,6,6,6,6,6,6,6,6,6,6,6,6,6,6,6,6,6,6,6,6,6,6,6,6,6,6,6,6,6,6,6,6,6,6,6,6,6,6,6,6,6,6,6,6,6,6,6,6,6,6,6,6,6,6,6,6,6,6,6,6,6,
6,6,6,6,6,6,6,6,6,6,6,6,6,6,6,6,6,6,6,6,6,6,6,6,6,6,6,6,6,6,6,6,6,6,6,6,6,6,6,6,6,6,6,6,6,6,6,6,6,6,6,6,6,6,6,6,6,6,6,6,6,6,6,6,6,6,6,6,6,6,
6,6,6,6,6,6,6,6,6,6,6,6,6,6,6,6,6,6,6,6,6,6,6,6,6,6,6,6,6,6,6,6,6,6,6,6,6,6,6,6,6,6,6,6,6,6,6,6,6,6,6,6,6,6,6,6,6,6,6,6,6,6,6,6,6,6,6,6,6,6,
6,6,6,6,6,6,6,6,6,6,6,6,6,6,6,6,6,6,6,6,6,6,6,6,6,6,6,6,6,6,6,6,6,6,6,6,6,6,6,6,6,6,6,6,6,6,6,6,6,6,6,6,6,6,6,6,6,6,6,6,6,6,6,6,6,6,6,6,6,6,
6,6,6,6,6,6,6,6,6,6,6,6,6,6,6,6,6,6,6,6,6,6,6,6,6,6,6,6,6,6,6,6,6,6,6,6,6,6,6,6,6,6,6,6,6,6,6,6,6,6,6,6,6,6,6,6,6,6,6,6,6,6,6,6,6,6,6,6,6,6,
6,6,6,6,6,6,6,6,6,6,6,6,6,6,6,6,6,6,6,6,6,6,6,6,6,6,6,6,6,6,6,6,6,6,6,6,6,6,6,6,6,6,6,6,6,6,6,6,6,6,6,6,6,6,6,6,6,6,6,6,6,6,6,6,6,6,6,6,6,6,
6,6,6,6,6,6,6,6,6,6,6,6,6,6,6,6,6,6,6,6,6,6,6,6,6,6,6,6,6,6,6,6,6,6,6,6,6,6,6,6,6,6,6,6,6,6,6,6,6,6,6,6,6,6,6,6,6,6,6,6,6,6,6,6,6,6,6,6,6,6,
6,6,6,6,6,6,6,6,6,6,6,6,6,6,6,6,6,6,6,6,6,6,6,6,6,6,6,6,6,6,6,6,6,6,6,6,6,6,6,6,6,6,6,6,6,6,6,6,6,6,6,6,6,6,6,6,6,6,6,6,6,6,6,6,6,6,6,6,6,6,
6,6,6,6,6,6,6,6,6,6,6,6,6,6,6,6,6,6,6,6,6,6,6,6,6,6,6,6,6,6,6,6,6,6,6,6,6,6,6,6,6,6,6,6,6,6,6,6,6,6,6,6,6,6,6,6,6,6,6,6,6,6,6,6,6,6,6,6,6,6,
6,6,6,6,6,6,6,6,6,6,6,6,6,6,6,6,6,6,6,6,6,6,6,6,6,6,6,6,6,6,6,6,6,6,6,6,6,6,6,6,6,6,6,6,6,6,6,6,6,6,6,6,6,6,6,6,6,6,6,6,6,6,6,6,6,6,6,6,6,6,
6,6,6,6,6,6,6,6,6,6,6,6,6,6,6,6,6,6,6,6,6,6,6,6,6,6,6,6,6,6,6,6,6,6,6,6,6,6,6,6,6,6,6,6,6,6,6,6,6,6,6,6,6,6,6,6,6,6,6,6,6,6,6,6,6,6,6,6,6,6,
6,6,6,6,6,6,6,6,6,6,6,6,6,6,6,6,6,6,6,6,6,6,6,6,6,6,6,6,6,6,6,6,6,6,6,6,6,6,6,6,6,6,6,6,6,6,6,6,6,6,6,6,6,6,6,6,6,6,6,6,6,6,6,6,6,6,6,6,6,6,
6,6,6,6,6,6,6,6,6,6,6,6,6,6,6,6,6,6,6,6,6,6,6,6,6,6,6,6,6,6,6,6,6,6,6,6,6,6,6,6,6,6,6,6,6,6,6,6,6,6,6,6,6,6,6,6,6,6,6,6,6,6,6,6,6,6,6,6,6,6,
6,6,6,6,6,6,6,6,6,6,6,6,6,6,6,6,6,6,6,6,6,6,6,6,6,6,6,6,6,6,6,6,6,6,6,6,6,6,6,6,6,6,6,6,6,6,6,6,6,6,6,6,6,6,6,6,6,6,6,6,6,6,6,6,6,6,6,6,6,6
</data>
 </layer>
 <layer name="LowerLayer" width="70" height="55">
  <properties>
   <property name="TransformTo" value=""/>
   <property name="Type" value="Block"/>
  </properties>
  <data encoding="csv">
6,461,462,463,464,189,190,189,190,189,190,189,190,190,189,190,189,190,189,190,189,190,189,190,189,190,189,190,189,190,189,190,189,190,189,190,191,192,189,190,189,190,189,190,189,190,189,190,189,190,189,190,189,190,189,190,189,190,189,190,189,190,189,190,189,190,6,6,6,6,
6,507,508,509,510,235,236,235,236,235,236,235,236,236,235,236,235,236,235,236,235,236,235,236,235,236,235,236,235,236,235,236,235,236,235,236,237,238,235,236,235,236,235,236,235,236,235,236,235,236,235,236,235,236,235,236,235,236,235,236,235,236,235,236,235,236,461,462,463,464,
6,553,554,555,556,6,6,6,6,6,6,6,6,6,6,6,6,6,6,6,6,6,6,6,6,6,6,6,6,6,6,6,6,6,6,6,5,5,6,6,6,6,6,6,6,6,6,6,6,6,6,6,6,6,6,6,6,6,6,6,6,6,6,6,6,6,507,508,509,510,
6,599,600,601,602,6,6,6,6,6,6,6,6,6,6,6,6,6,6,6,6,6,6,6,6,6,6,6,6,6,6,6,6,6,6,6,5,5,6,6,6,6,6,6,6,6,6,6,6,6,6,6,6,6,6,6,6,6,6,6,6,6,6,6,6,6,553,554,555,556,
54,54,56,56,6,6,6,6,6,6,6,6,6,6,6,6,6,6,6,6,6,6,6,6,6,6,6,6,6,6,6,6,6,6,6,6,5,5,6,0,6,6,6,6,6,6,6,6,6,6,6,6,6,6,6,6,6,6,6,6,6,6,6,6,6,6,599,600,601,602,
461,462,463,464,6,6,6,6,6,6,6,6,6,6,6,6,6,6,6,6,6,6,6,6,6,6,6,6,6,6,6,6,6,6,6,6,5,5,6,0,6,6,6,6,6,6,6,6,6,6,6,6,6,6,6,6,6,6,6,6,6,6,6,6,6,6,6,56,6,6,
507,508,509,510,6,6,6,6,6,6,6,6,6,6,6,6,6,6,6,6,6,6,6,6,6,6,6,6,6,6,6,6,6,6,6,6,5,5,6,0,6,6,6,6,6,6,6,6,6,6,6,6,6,6,6,6,6,6,6,6,6,6,6,6,6,6,461,462,463,464,
553,554,555,556,6,6,6,6,6,6,6,6,6,6,6,6,6,6,6,6,6,6,6,6,6,6,6,6,6,6,6,6,6,6,6,6,5,5,6,0,6,6,6,6,6,6,6,6,6,6,6,6,6,6,6,6,6,6,6,6,6,6,6,6,6,6,507,508,509,510,
599,600,601,602,6,6,6,6,6,6,6,6,6,6,6,6,6,6,6,6,6,6,6,6,6,6,6,6,6,6,6,6,6,6,6,6,5,5,6,0,6,6,6,6,6,6,6,6,6,6,6,6,6,6,6,6,6,6,6,6,6,6,6,6,6,6,553,554,555,556,
56,56,56,56,6,6,6,6,6,6,6,6,6,6,6,6,6,6,6,6,6,6,6,6,6,6,6,6,6,6,6,6,6,6,6,6,5,5,0,0,6,6,6,6,6,6,6,6,6,6,6,6,6,6,6,6,6,6,6,6,6,6,6,6,6,6,599,600,601,602,
54,54,54,54,54,6,6,6,6,6,6,6,6,6,6,6,6,6,6,6,6,6,6,6,6,6,6,6,6,6,6,6,6,6,0,6,5,5,0,0,6,6,6,6,6,6,6,6,6,6,6,6,6,6,6,6,6,6,6,6,6,6,6,6,6,6,56,6,6,6,
6,6,461,462,463,464,6,6,6,6,6,6,6,6,6,6,6,6,6,6,6,6,6,6,6,6,6,6,6,6,6,6,6,6,0,6,5,5,0,0,6,6,6,6,6,6,6,6,6,6,6,6,6,6,6,6,6,6,6,6,6,6,461,462,463,464,6,6,6,6,
6,6,507,508,509,510,6,6,6,6,6,6,6,6,6,6,6,6,6,6,6,6,6,6,6,6,6,6,6,6,6,6,6,6,0,6,5,5,0,0,6,6,6,6,6,6,6,6,6,6,6,6,6,6,6,6,6,6,6,6,6,6,507,508,509,510,6,6,6,6,
6,6,553,554,555,556,6,6,6,6,6,6,6,6,6,6,6,6,6,6,6,6,6,6,6,6,6,6,6,6,6,6,6,6,0,6,5,5,0,0,6,6,6,6,6,6,6,6,6,6,6,6,6,6,6,6,6,6,6,6,6,6,553,554,555,556,6,6,6,6,
6,6,599,600,601,602,6,6,6,6,6,6,6,6,6,6,6,6,6,6,6,6,6,6,6,6,6,6,6,6,6,6,6,0,0,6,5,5,0,0,6,6,6,6,6,6,6,6,6,6,6,6,6,6,6,6,6,6,6,6,6,6,599,600,601,602,187,188,6,6,
54,54,54,56,6,6,6,6,6,6,6,6,6,6,6,6,6,6,6,6,6,6,6,6,6,6,6,6,6,6,6,6,6,6,6,6,5,5,0,0,6,6,6,6,6,6,6,6,6,6,6,6,6,6,6,6,6,6,6,6,6,6,6,6,6,6,233,234,6,6,
461,462,463,464,6,6,6,6,6,6,6,6,6,6,6,6,6,6,6,6,6,6,6,6,6,6,6,6,6,6,6,6,6,6,6,6,5,5,0,0,6,6,6,6,6,6,6,6,6,6,6,6,6,6,6,6,6,6,6,6,6,6,6,6,6,6,461,462,463,464,
507,508,509,510,187,188,6,6,6,6,6,6,6,6,6,6,6,6,6,6,6,6,6,6,6,6,6,6,6,6,6,6,6,6,6,6,5,5,0,0,6,6,6,6,6,6,6,6,6,6,6,6,6,6,6,6,6,6,6,6,6,6,6,6,6,6,507,508,509,510,
553,554,555,556,233,234,6,6,6,6,6,6,6,6,6,6,6,6,6,6,6,6,6,6,6,6,6,6,6,6,6,6,6,6,6,0,5,5,0,0,6,6,6,6,6,6,6,6,6,6,6,6,6,6,6,6,6,6,6,6,6,6,6,6,6,6,553,554,555,556,
599,600,601,602,6,6,6,6,6,6,6,6,6,6,6,6,6,6,6,6,6,6,6,6,6,6,6,6,6,6,6,6,6,6,6,0,5,5,0,0,6,6,6,6,6,6,6,6,6,6,6,6,6,6,6,6,6,6,6,6,6,6,6,6,6,6,599,600,601,602,
6,6,56,6,6,6,6,6,6,6,6,6,6,6,6,6,6,6,6,6,6,6,6,6,6,6,6,6,6,6,6,6,6,6,6,0,5,5,6,6,6,6,6,6,6,6,6,6,6,6,6,6,6,6,6,6,6,6,6,6,6,6,6,6,6,6,56,6,6,6,
6,6,461,462,463,464,6,6,6,6,6,6,6,6,6,6,6,6,6,6,6,6,6,6,6,6,6,6,6,6,6,6,6,6,6,0,5,5,0,0,6,6,6,6,6,6,6,6,6,6,6,6,6,6,6,6,6,6,6,6,6,6,6,461,462,463,464,6,6,6,
6,6,507,508,509,510,6,6,6,6,6,6,6,6,6,6,6,6,6,6,6,6,6,6,6,6,6,6,6,6,6,6,6,6,6,6,5,5,6,6,6,6,6,6,6,6,6,6,6,6,6,6,6,6,6,6,6,6,6,6,6,6,6,507,508,509,510,6,6,6,
6,6,553,554,555,556,6,6,6,6,6,6,6,6,6,6,6,6,6,6,6,6,6,6,6,6,6,6,6,6,6,6,6,6,6,6,5,5,6,6,6,6,6,6,6,6,6,6,6,6,6,6,6,6,6,6,6,6,6,6,6,6,6,553,554,555,556,6,6,6,
6,6,599,600,601,602,6,6,6,6,6,6,6,6,6,6,6,6,6,6,6,6,6,6,6,6,6,6,6,6,6,6,6,6,6,6,5,5,6,6,6,6,6,6,6,6,6,6,6,6,6,6,6,6,6,6,6,6,6,6,6,6,6,599,600,601,602,187,188,6,
6,6,56,6,6,6,6,6,6,6,6,6,6,6,6,6,6,6,6,6,6,6,6,6,6,6,6,6,6,6,6,6,6,6,6,6,5,5,6,6,6,6,6,6,6,6,6,6,6,6,6,6,6,6,6,6,6,6,6,6,6,6,6,6,6,6,56,233,234,6,
461,462,463,464,6,6,6,6,6,6,6,6,6,6,6,6,6,6,6,6,6,6,6,6,6,6,6,6,6,6,6,6,6,6,6,6,5,5,6,6,6,6,6,6,6,6,6,6,6,6,6,6,6,6,6,6,6,6,6,6,6,6,6,6,6,6,461,462,463,464,
507,508,509,510,6,6,6,6,6,6,6,6,6,6,6,6,6,6,6,6,6,6,6,6,6,6,6,6,6,6,6,6,6,6,6,6,5,5,6,6,6,6,6,6,6,6,6,6,6,6,6,6,6,6,6,6,6,6,6,6,6,6,6,6,6,6,507,508,509,510,
553,554,555,556,6,6,6,6,6,6,6,6,6,6,6,6,6,6,6,6,6,6,6,6,6,6,6,6,6,6,6,6,6,6,6,6,5,5,6,6,6,6,6,6,6,6,6,6,6,6,6,6,6,6,6,6,6,6,6,6,6,6,6,6,6,6,553,554,555,556,
599,600,601,602,6,6,6,6,6,6,6,6,6,6,6,6,6,6,6,6,6,6,6,6,6,6,6,6,6,6,6,6,6,6,6,6,5,5,6,6,6,6,6,6,6,6,6,6,6,6,6,6,6,6,6,6,6,6,6,6,6,6,6,6,6,6,599,600,601,602,
6,6,56,6,6,6,6,6,6,6,6,6,6,6,6,6,6,6,6,6,6,6,6,6,6,6,6,6,6,6,6,6,6,6,6,6,5,5,6,6,6,6,6,6,6,6,6,6,6,6,6,6,6,6,6,6,6,6,6,6,6,6,6,6,6,6,56,6,6,6,
6,6,461,462,463,464,6,6,6,6,6,6,6,6,6,6,6,6,6,6,6,6,6,6,6,6,6,6,6,6,6,6,6,6,6,6,5,5,6,6,6,6,6,6,6,6,6,6,6,6,6,6,6,6,6,6,6,6,6,6,6,6,6,461,462,463,464,6,6,6,
6,6,507,508,509,510,6,6,6,6,6,6,6,6,6,6,6,6,6,6,6,6,6,6,6,6,6,6,6,6,6,6,6,6,6,6,5,5,6,6,6,6,6,6,6,6,6,6,6,6,6,6,6,6,6,6,6,6,6,6,6,6,6,507,508,509,510,6,6,6,
6,6,553,554,555,556,6,6,6,6,6,6,6,6,6,6,6,6,6,6,6,6,6,6,6,6,6,6,6,6,6,6,6,6,6,6,5,5,6,6,6,6,6,6,6,6,6,6,6,6,6,6,6,6,6,6,6,6,6,6,6,6,6,553,554,555,556,6,6,6,
6,6,599,600,601,602,6,6,6,6,6,6,6,6,6,6,6,6,6,6,6,6,6,6,6,6,6,6,6,6,6,6,6,6,6,6,5,5,6,6,6,6,6,6,6,6,6,6,6,6,6,6,6,6,6,6,6,6,6,6,6,6,6,599,600,601,602,6,187,188,
6,6,6,56,6,6,6,6,6,6,6,6,6,6,6,6,6,6,6,6,6,6,6,6,6,6,6,6,6,6,6,6,6,6,6,6,5,5,6,6,6,6,6,6,6,6,6,6,6,6,6,6,6,6,6,6,6,6,6,6,6,6,6,6,56,6,6,6,233,234,
6,461,462,463,464,6,187,188,6,6,6,6,6,6,6,6,6,6,6,6,6,6,6,6,6,6,6,6,6,6,6,6,6,6,6,6,5,5,6,6,6,6,6,6,6,6,6,6,6,6,6,6,6,6,6,6,6,6,6,6,6,461,462,463,464,6,187,188,6,6,
6,507,508,509,510,6,233,234,6,6,6,6,6,6,6,6,6,6,6,6,6,6,6,6,6,6,6,6,6,6,6,6,6,6,6,6,5,5,6,6,6,6,6,6,6,6,6,6,6,6,6,6,6,6,6,6,6,6,6,6,6,507,508,509,510,6,233,234,6,6,
6,553,554,555,556,6,6,6,6,6,6,6,6,6,6,6,6,6,6,6,6,6,6,6,6,6,6,6,6,6,6,6,6,6,6,6,5,5,6,6,6,6,6,6,6,6,6,6,6,6,6,6,6,6,6,6,6,6,6,6,6,553,554,555,556,6,6,6,187,188,
6,599,600,601,602,6,6,6,6,6,6,6,6,6,6,6,6,6,6,6,6,6,6,6,6,6,6,6,6,6,6,6,6,6,6,6,5,5,6,6,6,6,6,6,6,6,6,6,6,6,6,6,6,6,6,6,6,6,6,6,6,599,600,601,602,187,188,6,233,234,
6,6,6,56,6,6,6,6,6,6,6,6,6,6,6,6,6,6,6,6,6,6,6,6,6,6,6,6,6,6,6,6,6,6,6,6,5,5,6,6,6,6,6,6,6,6,6,6,6,6,6,6,6,6,6,6,6,6,461,462,463,464,54,6,6,233,234,6,6,6,
6,6,6,461,462,463,464,6,6,6,6,6,6,6,6,6,6,6,6,6,6,6,6,6,6,6,6,6,6,6,6,6,6,6,6,6,5,5,6,6,6,6,6,6,6,6,6,6,6,6,6,6,6,6,6,6,6,6,507,508,509,510,54,187,188,461,462,463,464,6,
6,6,6,507,508,509,510,6,6,6,6,6,6,6,6,6,6,6,6,6,6,6,6,6,6,6,6,6,6,6,6,6,6,6,6,6,5,5,6,6,6,6,6,6,6,6,6,6,6,6,6,6,6,6,6,6,6,6,553,554,555,556,6,233,234,507,508,509,510,6,
6,6,6,553,554,555,556,6,6,6,6,6,6,6,6,6,6,6,6,6,6,6,6,6,6,6,6,6,6,6,6,6,6,6,6,6,5,5,6,6,6,6,6,6,6,6,6,6,6,6,6,6,6,6,6,6,6,6,599,600,601,54,187,188,6,553,554,555,556,6,
6,428,6,599,600,601,602,6,6,6,6,6,6,6,6,6,6,6,6,6,6,6,6,6,6,6,6,6,6,6,6,6,6,6,6,6,5,5,6,6,6,6,6,6,6,6,6,6,6,6,6,6,6,6,6,6,6,6,0,0,54,54,233,234,6,599,600,601,602,6,
6,474,6,6,56,6,6,6,6,6,6,6,6,6,6,6,6,6,6,6,6,6,6,6,6,6,6,6,6,6,6,6,6,6,6,6,5,5,6,6,6,6,6,6,6,6,6,6,6,6,6,6,6,6,6,6,6,6,6,6,54,54,54,6,6,6,56,6,6,6,
6,6,6,6,461,462,463,464,6,6,6,6,6,6,6,6,6,6,6,6,6,6,6,6,6,6,6,6,6,6,6,6,6,6,6,6,5,5,6,6,6,6,6,6,6,6,6,6,6,6,6,6,6,6,6,6,6,6,6,6,6,6,6,461,462,463,464,6,6,6,
6,6,6,6,507,508,509,510,6,6,6,6,6,6,6,6,6,6,6,6,6,6,6,6,6,6,6,6,6,6,6,6,6,6,6,6,5,5,6,6,6,6,6,6,6,6,6,6,6,6,6,6,6,6,6,6,6,6,6,6,6,6,6,507,508,509,510,6,6,6,
6,6,6,6,553,554,555,556,6,6,6,6,6,6,6,6,6,6,6,6,6,6,6,6,6,6,6,6,6,6,6,6,6,6,6,6,5,5,6,6,6,6,6,6,6,6,6,6,6,6,6,6,6,6,6,6,6,6,6,6,6,6,6,553,554,555,556,6,6,6,
6,6,6,56,599,600,601,602,6,6,6,6,6,6,6,6,6,6,6,6,6,6,6,6,6,6,6,6,6,6,6,6,6,6,6,6,5,5,6,6,6,6,6,6,6,6,6,6,6,6,6,6,6,6,6,6,6,6,6,6,6,6,6,599,600,601,602,187,188,6,
6,6,6,56,6,6,6,6,6,6,6,6,6,6,6,6,6,6,6,6,6,6,6,6,6,6,6,6,6,6,6,6,6,6,6,6,5,5,6,6,6,6,6,6,6,6,6,6,6,6,6,6,6,6,6,6,6,6,6,6,6,6,6,6,6,6,56,233,234,6,
461,462,463,464,6,6,6,6,6,6,6,6,6,6,6,6,6,6,6,6,6,6,6,6,6,6,6,6,6,6,6,6,6,6,6,6,5,5,6,6,6,6,6,6,6,6,6,6,6,6,6,6,6,6,6,6,6,6,6,6,6,6,6,6,6,6,461,462,463,464,
507,508,509,510,6,187,188,6,6,6,6,6,6,6,6,6,6,6,6,6,6,6,6,6,6,6,6,6,6,6,6,6,6,6,6,6,5,5,6,6,6,6,6,6,6,6,6,6,6,6,6,6,6,6,6,6,6,6,6,6,6,6,6,6,6,6,507,508,509,510,
553,554,555,556,6,233,234,6,6,6,6,6,6,6,6,6,6,6,6,6,6,6,6,6,6,6,6,6,6,6,6,6,6,6,6,6,5,5,6,6,6,6,6,6,6,6,6,6,6,6,6,6,6,6,6,6,6,6,6,6,6,6,6,6,6,6,553,554,555,556,
599,600,601,602,691,691,691,691,691,691,691,691,691,691,691,691,691,691,691,691,691,691,691,691,691,691,691,691,691,691,691,691,691,691,691,691,56,56,691,691,691,691,691,691,691,691,691,691,691,691,691,691,691,691,691,691,691,691,691,691,691,691,691,691,691,691,599,600,601,602
</data>
 </layer>
 <layer name="UpperLayer" width="70" height="55">
  <data encoding="csv">
0,0,0,0,0,0,0,0,0,0,0,0,0,0,0,0,0,0,0,0,0,0,0,0,0,0,0,0,0,0,0,0,0,0,0,0,0,0,0,0,0,0,0,0,0,0,0,0,0,0,0,0,0,0,0,0,0,0,0,0,0,0,0,0,0,0,415,416,417,418,
0,0,0,0,0,0,0,0,0,0,0,0,0,0,0,0,0,0,0,0,0,0,0,0,0,0,0,0,0,0,0,0,0,0,0,0,0,0,0,0,0,0,0,0,0,0,0,0,0,0,0,0,0,0,0,0,0,0,0,0,0,0,0,0,0,0,0,0,0,0,
0,0,0,0,0,0,0,0,0,0,0,0,0,0,0,0,0,0,0,0,0,0,0,0,0,0,0,0,0,0,0,0,0,0,0,0,0,0,0,0,0,0,0,0,0,0,0,0,0,0,0,0,0,0,0,0,0,0,0,0,0,0,0,0,0,0,0,0,0,0,
0,0,0,0,0,0,0,0,0,0,0,0,0,0,0,0,0,0,0,0,0,0,0,0,0,0,0,0,0,0,0,0,0,0,0,0,0,0,0,0,0,0,0,0,0,0,0,0,0,0,0,0,0,0,0,0,0,0,0,0,0,0,0,0,0,0,0,0,0,0,
415,416,417,418,0,0,0,0,0,0,0,0,0,0,0,0,0,0,0,0,0,0,0,0,0,0,0,0,0,0,0,0,0,0,0,0,0,0,0,0,0,0,0,0,0,0,0,0,0,0,0,0,0,0,0,0,0,0,0,0,0,0,0,0,0,0,0,0,0,0,
0,0,0,0,0,0,0,0,0,0,0,0,0,0,0,0,0,0,0,0,0,0,0,0,0,0,0,0,0,0,0,0,0,0,0,0,0,0,0,0,0,0,0,0,0,0,0,0,0,0,0,0,0,0,0,0,0,0,0,0,0,0,0,0,0,0,415,416,417,418,
0,0,0,0,0,0,0,0,0,0,0,0,0,0,0,0,0,0,0,0,0,0,0,0,0,0,0,0,0,0,0,0,0,0,0,0,0,0,0,0,0,0,0,0,0,0,0,0,0,0,0,0,0,0,0,0,0,0,0,0,0,0,0,0,0,0,0,0,0,0,
0,0,0,0,0,0,0,0,0,0,0,0,0,0,0,0,0,0,0,0,0,0,0,0,0,0,0,0,0,0,0,0,0,0,0,0,0,0,0,0,0,0,0,0,0,0,0,0,0,0,0,0,0,0,0,0,0,0,0,0,0,0,0,0,0,0,0,0,0,0,
0,0,0,0,0,0,0,0,0,0,0,0,0,0,0,0,0,0,0,0,0,0,0,0,0,0,0,0,0,0,0,0,0,0,0,0,0,0,0,0,0,0,0,0,0,0,0,0,0,0,0,0,0,0,0,0,0,0,0,0,0,0,0,0,0,0,0,0,0,0,
0,0,0,0,0,0,0,0,0,0,0,0,0,0,0,0,0,0,0,0,0,0,0,0,0,0,0,0,0,0,0,0,0,0,0,0,0,0,0,0,0,0,0,0,0,0,0,0,0,0,0,0,0,0,0,0,0,0,0,0,0,0,0,0,0,0,0,0,0,0,
0,0,415,416,417,418,0,0,0,0,0,0,0,0,0,0,0,0,0,0,0,0,0,0,0,0,0,0,0,0,0,0,0,0,0,0,0,0,0,0,0,0,0,0,0,0,0,0,0,0,0,0,0,0,0,0,0,0,0,0,0,0,415,416,417,418,0,0,0,0,
0,0,0,0,0,0,0,0,0,0,0,0,0,0,0,0,0,0,0,0,0,0,0,0,0,0,0,0,0,0,0,0,0,0,0,0,0,0,0,0,0,0,0,0,0,0,0,0,0,0,0,0,0,0,0,0,0,0,0,0,0,0,0,0,0,0,0,0,0,0,
0,0,0,0,0,0,0,0,0,0,0,0,0,0,0,0,0,0,0,0,0,0,0,0,0,0,0,0,0,0,0,0,0,0,0,0,0,0,0,0,0,0,0,0,0,0,0,0,0,0,0,0,0,0,0,0,0,0,0,0,0,0,0,0,0,0,0,0,0,0,
0,0,0,0,0,0,0,0,0,0,0,0,0,0,0,0,0,0,0,0,0,0,0,0,0,0,0,0,0,0,0,0,0,0,0,0,0,0,0,0,0,0,0,0,0,0,0,0,0,0,0,0,0,0,0,0,0,0,0,0,0,0,0,0,0,0,0,0,0,0,
0,0,0,0,0,0,0,0,0,0,0,0,0,0,0,0,0,0,0,0,0,0,0,0,0,0,0,0,0,0,0,0,0,0,0,0,0,0,0,0,0,0,0,0,0,0,0,0,0,0,0,0,0,0,0,0,0,0,0,0,0,0,0,0,0,0,0,0,0,0,
415,416,417,418,0,0,0,0,0,0,0,0,0,0,0,0,0,0,0,0,0,0,0,0,0,0,0,0,0,0,0,0,0,0,0,0,0,0,0,0,0,0,0,0,0,0,0,0,0,0,0,0,0,0,0,0,0,0,0,0,0,0,0,0,0,0,415,416,417,418,
0,0,0,0,0,0,0,0,0,0,0,0,0,0,0,0,0,0,0,0,0,0,0,0,0,0,0,0,0,0,0,0,0,0,0,0,0,0,0,0,0,0,0,0,0,0,0,0,0,0,0,0,0,0,0,0,0,0,0,0,0,0,0,0,0,0,0,0,0,0,
0,0,0,0,0,0,0,0,0,0,0,0,0,0,0,0,0,0,0,0,0,0,0,0,0,0,0,0,0,0,0,0,0,0,0,0,0,0,0,0,0,0,0,0,0,0,0,0,0,0,0,0,0,0,0,0,0,0,0,0,0,0,0,0,0,0,0,0,0,0,
0,0,0,0,0,0,0,0,0,0,0,0,0,0,0,0,0,0,0,0,0,0,0,0,0,0,0,0,0,0,0,0,0,0,0,0,0,0,0,0,0,0,0,0,0,0,0,0,0,0,0,0,0,0,0,0,0,0,0,0,0,0,0,0,0,0,0,0,0,0,
0,0,0,0,0,0,0,0,0,0,0,0,0,0,0,0,0,0,0,0,0,0,0,0,0,0,0,0,0,0,0,0,0,0,0,0,0,0,0,0,0,0,0,0,0,0,0,0,0,0,0,0,0,0,0,0,0,0,0,0,0,0,0,0,0,0,0,0,0,0,
0,0,415,416,417,418,0,0,0,0,0,0,0,0,0,0,0,0,0,0,0,0,0,0,0,0,0,0,0,0,0,0,0,0,0,0,0,0,0,0,0,0,0,0,0,0,0,0,0,0,0,0,0,0,0,0,0,0,0,0,0,0,0,415,416,417,418,0,0,0,
0,0,0,0,0,0,0,0,0,0,0,0,0,0,0,0,0,0,0,0,0,0,0,0,0,0,0,0,0,0,0,0,0,0,0,0,0,0,0,0,0,0,0,0,0,0,0,0,0,0,0,0,0,0,0,0,0,0,0,0,0,0,0,0,0,0,0,0,0,0,
0,0,0,0,0,0,0,0,0,0,0,0,0,0,0,0,0,0,0,0,0,0,0,0,0,0,0,0,0,0,0,0,0,0,0,0,0,0,0,0,0,0,0,0,0,0,0,0,0,0,0,0,0,0,0,0,0,0,0,0,0,0,0,0,0,0,0,0,0,0,
0,0,0,0,0,0,0,0,0,0,0,0,0,0,0,0,0,0,0,0,0,0,0,0,0,0,0,0,0,0,0,0,0,0,0,0,0,0,0,0,0,0,0,0,0,0,0,0,0,0,0,0,0,0,0,0,0,0,0,0,0,0,0,0,0,0,0,0,0,0,
0,0,0,0,0,0,0,0,0,0,0,0,0,0,0,0,0,0,0,0,0,0,0,0,0,0,0,0,0,0,0,0,0,0,0,0,0,0,0,0,0,0,0,0,0,0,0,0,0,0,0,0,0,0,0,0,0,0,0,0,0,0,0,0,0,0,0,0,0,0,
415,416,417,418,0,0,0,0,0,0,0,0,0,0,0,0,0,0,0,0,0,0,0,0,0,0,0,0,0,0,0,0,0,0,0,0,0,0,0,0,0,0,0,0,0,0,0,0,0,0,0,0,0,0,0,0,0,0,0,0,0,0,0,0,0,0,415,416,417,418,
0,0,0,0,0,0,0,0,0,0,0,0,0,0,0,0,0,0,0,0,0,0,0,0,0,0,0,0,0,0,0,0,0,0,0,0,0,0,0,0,0,0,0,0,0,0,0,0,0,0,0,0,0,0,0,0,0,0,0,0,0,0,0,0,0,0,0,0,0,0,
0,0,0,0,0,0,0,0,0,0,0,0,0,0,0,0,0,0,0,0,0,0,0,0,0,0,0,0,0,0,0,0,0,0,0,0,0,0,0,0,0,0,0,0,0,0,0,0,0,0,0,0,0,0,0,0,0,0,0,0,0,0,0,0,0,0,0,0,0,0,
0,0,0,0,0,0,0,0,0,0,0,0,0,0,0,0,0,0,0,0,0,0,0,0,0,0,0,0,0,0,0,0,0,0,0,0,0,0,0,0,0,0,0,0,0,0,0,0,0,0,0,0,0,0,0,0,0,0,0,0,0,0,0,0,0,0,0,0,0,0,
0,0,0,0,0,0,0,0,0,0,0,0,0,0,0,0,0,0,0,0,0,0,0,0,0,0,0,0,0,0,0,0,0,0,0,0,0,0,0,0,0,0,0,0,0,0,0,0,0,0,0,0,0,0,0,0,0,0,0,0,0,0,0,0,0,0,0,0,0,0,
0,0,415,416,417,418,0,0,0,0,0,0,0,0,0,0,0,0,0,0,0,0,0,0,0,0,0,0,0,0,0,0,0,0,0,0,0,0,0,0,0,0,0,0,0,0,0,0,0,0,0,0,0,0,0,0,0,0,0,0,0,0,0,415,416,417,418,0,0,0,
0,0,0,0,0,0,0,0,0,0,0,0,0,0,0,0,0,0,0,0,0,0,0,0,0,0,0,0,0,0,0,0,0,0,0,0,0,0,0,0,0,0,0,0,0,0,0,0,0,0,0,0,0,0,0,0,0,0,0,0,0,0,0,0,0,0,0,0,0,0,
0,0,0,0,0,0,0,0,0,0,0,0,0,0,0,0,0,0,0,0,0,0,0,0,0,0,0,0,0,0,0,0,0,0,0,0,0,0,0,0,0,0,0,0,0,0,0,0,0,0,0,0,0,0,0,0,0,0,0,0,0,0,0,0,0,0,0,0,0,0,
0,0,0,0,0,0,0,0,0,0,0,0,0,0,0,0,0,0,0,0,0,0,0,0,0,0,0,0,0,0,0,0,0,0,0,0,0,0,0,0,0,0,0,0,0,0,0,0,0,0,0,0,0,0,0,0,0,0,0,0,0,0,0,0,0,0,0,0,0,0,
0,0,0,0,0,0,0,0,0,0,0,0,0,0,0,0,0,0,0,0,0,0,0,0,0,0,0,0,0,0,0,0,0,0,0,0,0,0,0,0,0,0,0,0,0,0,0,0,0,0,0,0,0,0,0,0,0,0,0,0,0,0,0,0,0,0,0,0,0,0,
0,415,416,417,418,0,0,0,0,0,0,0,0,0,0,0,0,0,0,0,0,0,0,0,0,0,0,0,0,0,0,0,0,0,0,0,0,0,0,0,0,0,0,0,0,0,0,0,0,0,0,0,0,0,0,0,0,0,0,0,0,415,416,417,418,0,0,0,0,0,
0,0,0,0,0,0,0,0,0,0,0,0,0,0,0,0,0,0,0,0,0,0,0,0,0,0,0,0,0,0,0,0,0,0,0,0,0,0,0,0,0,0,0,0,0,0,0,0,0,0,0,0,0,0,0,0,0,0,0,0,0,0,0,0,0,0,0,0,0,0,
0,0,0,0,0,0,0,0,0,0,0,0,0,0,0,0,0,0,0,0,0,0,0,0,0,0,0,0,0,0,0,0,0,0,0,0,0,0,0,0,0,0,0,0,0,0,0,0,0,0,0,0,0,0,0,0,0,0,0,0,0,0,0,0,0,0,0,0,0,0,
0,0,0,0,0,0,0,0,0,0,0,0,0,0,0,0,0,0,0,0,0,0,0,0,0,0,0,0,0,0,0,0,0,0,0,0,0,0,0,0,0,0,0,0,0,0,0,0,0,0,0,0,0,0,0,0,0,0,0,0,0,0,0,0,0,0,0,0,0,0,
0,0,0,0,0,0,0,0,0,0,0,0,0,0,0,0,0,0,0,0,0,0,0,0,0,0,0,0,0,0,0,0,0,0,0,0,0,0,0,0,0,0,0,0,0,0,0,0,0,0,0,0,0,0,0,0,0,0,415,416,417,418,0,0,0,0,0,0,0,0,
0,0,0,415,416,417,418,0,0,0,0,0,0,0,0,0,0,0,0,0,0,0,0,0,0,0,0,0,0,0,0,0,0,0,0,0,0,0,0,0,0,0,0,0,0,0,0,0,0,0,0,0,0,0,0,0,0,0,0,0,0,0,0,0,0,415,416,417,418,0,
0,0,0,0,0,0,0,0,0,0,0,0,0,0,0,0,0,0,0,0,0,0,0,0,0,0,0,0,0,0,0,0,0,0,0,0,0,0,0,0,0,0,0,0,0,0,0,0,0,0,0,0,0,0,0,0,0,0,0,0,0,0,0,0,0,0,0,0,0,0,
0,0,0,0,0,0,0,0,0,0,0,0,0,0,0,0,0,0,0,0,0,0,0,0,0,0,0,0,0,0,0,0,0,0,0,0,0,0,0,0,0,0,0,0,0,0,0,0,0,0,0,0,0,0,0,0,0,0,0,0,0,0,0,0,0,0,0,0,0,0,
0,0,0,0,0,0,0,0,0,0,0,0,0,0,0,0,0,0,0,0,0,0,0,0,0,0,0,0,0,0,0,0,0,0,0,0,0,0,0,0,0,0,0,0,0,0,0,0,0,0,0,0,0,0,0,0,0,0,0,0,0,0,0,0,0,0,0,0,0,0,
0,0,0,0,0,0,0,0,0,0,0,0,0,0,0,0,0,0,0,0,0,0,0,0,0,0,0,0,0,0,0,0,0,0,0,0,0,0,0,0,0,0,0,0,0,0,0,0,0,0,0,0,0,0,0,0,0,0,0,0,0,0,0,0,0,0,0,0,0,0,
0,0,0,0,415,416,417,418,0,0,0,0,0,0,0,0,0,0,0,0,0,0,0,0,0,0,0,0,0,0,0,0,0,0,0,0,0,0,0,0,0,0,0,0,0,0,0,0,0,0,0,0,0,0,0,0,0,0,0,0,0,0,0,415,416,417,418,0,0,0,
0,0,0,0,0,0,0,0,0,0,0,0,0,0,0,0,0,0,0,0,0,0,0,0,0,0,0,0,0,0,0,0,0,0,0,0,0,0,0,0,0,0,0,0,0,0,0,0,0,0,0,0,0,0,0,0,0,0,0,0,0,0,0,0,0,0,0,0,0,0,
0,0,0,0,0,0,0,0,0,0,0,0,0,0,0,0,0,0,0,0,0,0,0,0,0,0,0,0,0,0,0,0,0,0,0,0,0,0,0,0,0,0,0,0,0,0,0,0,0,0,0,0,0,0,0,0,0,0,0,0,0,0,0,0,0,0,0,0,0,0,
0,0,0,0,0,0,0,0,0,0,0,0,0,0,0,0,0,0,0,0,0,0,0,0,0,0,0,211,208,209,210,211,0,208,209,210,211,208,209,210,211,0,0,208,209,210,211,208,209,210,211,0,0,0,0,0,0,0,0,0,0,0,0,0,0,0,0,0,0,0,
0,0,0,0,0,0,0,0,0,0,0,0,0,0,0,0,0,0,0,0,0,0,0,0,0,0,0,0,0,0,0,0,0,0,0,0,0,0,0,0,0,0,0,0,0,0,0,0,0,0,0,0,0,0,0,0,0,0,0,0,0,0,0,0,0,0,0,0,0,0,
415,416,417,418,208,209,210,211,0,0,0,0,208,209,210,211,208,209,210,211,208,209,210,211,208,209,210,0,0,0,0,0,0,0,0,0,0,0,0,256,0,0,0,0,0,0,0,0,0,0,0,0,0,0,0,0,0,0,0,0,0,0,0,0,0,0,415,416,417,418,
0,0,0,0,0,0,0,0,0,0,0,0,0,0,0,0,0,0,0,0,0,0,0,0,0,0,0,0,0,0,0,0,0,0,0,0,0,0,0,0,0,0,0,0,0,0,0,0,0,0,0,0,0,0,0,0,0,0,0,0,0,0,0,0,0,0,210,0,0,0,
0,255,256,257,254,0,0,0,0,0,0,0,0,0,0,0,0,0,0,0,0,0,0,0,0,0,0,0,0,0,0,0,0,0,0,0,0,0,0,0,0,0,0,0,0,0,0,0,0,0,0,0,0,0,0,0,0,0,0,0,0,0,0,0,0,0,0,0,0,0,
0,0,0,0,0,0,0,0,0,0,0,0,0,0,0,0,0,0,0,0,0,0,0,0,0,0,0,0,0,0,0,0,0,0,0,0,0,0,0,0,0,0,0,0,0,0,0,0,0,0,0,0,0,0,0,0,0,0,0,0,0,0,0,0,0,0,0,0,0,0,
0,0,0,0,0,0,0,0,0,0,0,0,0,0,0,0,0,301,302,303,300,301,302,303,300,301,302,303,300,301,302,303,0,300,301,302,303,300,301,302,303,0,0,300,301,302,303,300,301,0,0,0,0,0,0,0,0,0,0,0,0,0,0,0,0,0,0,0,0,0
</data>
 </layer>
 <layer name="Enemies" width="70" height="55">
  <data encoding="csv">
0,0,0,0,0,0,0,0,0,0,0,0,0,0,0,0,0,0,0,0,0,0,0,0,0,0,0,0,0,0,0,0,0,0,0,0,0,0,0,0,0,0,0,0,0,0,0,0,0,0,0,0,0,0,0,0,0,0,0,0,0,0,0,0,0,0,0,0,0,0,
0,0,0,0,0,0,0,0,0,0,0,0,0,0,0,0,0,0,0,0,0,0,0,0,0,0,0,0,0,0,0,0,0,0,0,0,0,0,0,0,0,0,0,0,0,0,0,0,0,0,0,0,0,0,0,0,0,0,0,0,0,0,0,0,0,0,0,0,0,0,
0,0,0,0,0,0,0,0,0,0,0,0,0,0,0,0,0,0,0,0,0,0,0,0,0,0,0,0,0,0,0,0,0,0,0,0,0,0,0,0,0,0,0,0,0,0,0,0,0,0,0,0,0,0,0,0,0,0,0,0,0,0,0,0,0,0,0,0,0,0,
0,0,0,0,0,0,0,0,0,0,0,0,0,0,0,0,0,0,0,0,0,0,0,0,0,0,0,0,0,0,0,0,0,0,0,0,0,0,0,0,0,0,0,0,0,0,0,0,0,0,0,0,0,0,0,0,0,0,0,0,0,0,0,0,0,0,0,0,0,0,
0,0,0,0,0,0,0,0,0,0,0,0,0,0,0,0,0,0,0,0,0,0,0,0,0,0,0,0,0,0,0,0,0,0,0,0,0,0,1388,0,0,0,0,0,0,0,0,0,0,0,0,0,0,0,0,0,0,0,0,0,0,0,0,0,0,0,0,0,0,0,
0,0,0,0,0,0,0,0,0,0,0,0,0,0,0,0,0,0,0,0,0,0,0,0,0,0,0,0,0,0,0,0,0,0,0,0,0,0,0,0,0,0,0,0,0,0,0,0,0,0,0,0,0,0,0,0,0,0,0,0,0,0,0,0,0,0,0,0,0,0,
0,0,0,0,0,0,0,0,0,0,0,0,0,0,0,0,0,0,0,0,0,0,0,0,0,0,0,0,0,0,0,0,0,0,0,0,0,0,0,0,0,0,0,0,0,0,0,0,0,0,0,0,0,0,0,0,0,0,0,0,0,0,0,0,0,0,0,0,0,0,
0,0,0,0,0,0,0,0,0,0,0,0,0,0,0,0,0,0,0,0,0,0,0,0,0,0,0,0,0,0,0,0,0,0,0,0,0,0,0,0,0,0,0,0,0,0,0,0,0,0,0,0,0,0,0,0,0,0,0,0,0,0,0,0,0,0,0,0,0,0,
0,0,0,0,0,0,0,0,0,0,0,0,0,0,0,0,0,0,0,0,0,0,0,0,0,0,0,0,0,0,0,0,0,0,0,0,0,0,0,0,0,0,0,0,0,0,0,0,0,0,0,0,0,0,0,0,0,0,0,0,0,0,0,0,0,0,0,0,0,0,
0,0,0,0,0,0,0,0,0,0,0,0,0,0,0,0,0,0,0,0,0,0,0,0,0,0,0,0,0,0,0,0,0,0,0,0,0,0,0,0,0,0,0,0,0,0,0,0,0,0,0,0,0,0,0,0,0,0,0,0,0,0,0,0,0,0,0,0,0,0,
0,0,0,0,0,0,0,0,0,0,0,0,0,0,0,0,0,0,0,0,0,0,0,0,0,0,0,0,0,0,0,0,0,0,0,0,0,0,0,0,0,0,0,0,0,0,0,0,0,0,0,0,0,0,0,0,0,0,0,0,0,0,0,0,0,0,0,0,0,0,
0,0,0,0,0,0,0,0,0,0,0,0,0,0,0,0,0,0,0,0,0,0,0,0,0,0,0,0,0,0,0,0,0,0,0,0,0,0,0,0,0,0,0,0,0,0,0,0,0,0,0,0,0,0,0,0,0,0,0,0,0,0,0,0,0,0,0,0,0,0,
0,0,0,0,0,0,0,0,0,0,0,0,0,0,0,0,0,0,0,0,0,0,0,0,0,0,0,0,0,0,0,0,0,0,0,0,0,0,0,0,0,0,0,0,0,0,0,0,0,0,0,0,0,0,0,0,0,0,0,0,0,0,0,0,0,0,0,0,0,0,
0,0,0,0,0,0,0,0,0,0,0,0,0,0,0,0,0,0,0,0,0,0,0,0,0,0,0,0,0,0,0,0,0,0,0,0,0,0,0,0,0,0,0,0,0,0,0,0,0,0,0,0,0,0,0,0,0,0,0,0,0,0,0,0,0,0,0,0,0,0,
0,0,0,0,0,0,0,0,0,0,0,0,0,0,0,0,0,0,0,0,0,0,0,0,0,0,0,0,0,0,0,0,0,0,0,0,0,0,0,0,0,0,0,0,0,0,0,0,0,0,0,0,0,0,0,0,0,0,0,0,0,0,0,0,0,0,0,0,0,0,
0,0,0,0,0,0,0,0,0,0,0,0,0,0,0,0,0,0,0,0,0,0,0,0,0,0,0,0,0,0,0,0,0,0,0,0,0,0,0,0,0,0,0,0,0,0,0,0,0,0,0,0,0,0,0,0,0,0,0,0,0,0,0,0,0,0,0,0,0,0,
0,0,0,0,0,0,0,0,0,0,0,0,0,0,0,0,0,0,0,0,0,0,0,0,0,0,0,0,0,0,0,0,0,0,0,0,0,0,0,0,0,0,0,0,0,0,0,0,0,0,0,0,0,0,0,0,0,0,0,0,0,0,0,0,0,0,0,0,0,0,
0,0,0,0,0,0,0,0,0,0,0,0,0,0,0,0,0,0,0,0,0,0,0,0,0,0,0,0,0,0,0,0,0,0,0,0,0,0,0,0,0,0,0,0,0,0,0,0,0,0,0,0,0,0,0,0,0,0,0,0,0,0,0,0,0,0,0,0,0,0,
0,0,0,0,0,0,0,0,0,0,0,0,0,0,0,0,0,0,0,0,0,0,0,0,0,0,0,0,0,0,0,0,0,0,0,0,0,0,0,0,0,0,0,0,0,0,0,0,0,0,0,0,0,0,0,0,0,0,0,0,0,0,0,0,0,0,0,0,0,0,
0,0,0,0,0,0,0,0,0,0,0,0,0,0,0,0,0,0,0,0,0,0,0,0,0,0,0,0,0,0,0,0,0,0,0,0,0,0,0,0,0,0,0,0,0,0,0,0,0,0,0,0,0,0,0,0,0,0,0,0,0,0,0,0,0,0,0,0,0,0,
0,0,0,0,0,0,0,0,0,0,0,0,0,0,0,0,0,0,0,0,0,0,0,0,0,0,0,0,0,0,0,0,0,0,0,0,0,0,0,0,0,0,0,0,0,0,0,0,0,0,0,0,0,0,0,0,0,0,0,0,0,0,0,0,0,0,0,0,0,0,
0,0,0,0,0,0,0,0,0,0,0,0,0,0,0,0,0,0,0,0,0,0,0,0,0,0,0,0,0,0,0,0,0,0,0,0,0,0,0,0,0,0,0,0,0,0,0,0,0,0,0,0,0,0,0,0,0,0,0,0,0,0,0,0,0,0,0,0,0,0,
0,0,0,0,0,0,0,0,0,0,0,0,0,0,0,0,0,0,0,0,0,0,0,0,0,0,0,0,0,0,0,0,0,0,0,0,0,0,0,0,0,0,0,0,0,0,0,0,0,0,0,0,0,0,0,0,0,0,0,0,0,0,0,0,0,0,0,0,0,0,
0,0,0,0,0,0,0,0,0,0,0,0,0,0,0,0,0,0,0,0,0,0,0,0,0,0,0,0,0,0,0,0,0,0,0,0,0,0,0,0,0,0,0,0,0,0,0,0,0,0,0,0,0,0,0,0,0,0,0,0,0,0,0,0,0,0,0,0,0,0,
0,0,0,0,0,0,0,0,0,0,0,0,0,0,0,0,0,0,0,0,0,0,0,0,0,0,0,0,0,0,0,0,0,0,0,0,0,0,0,0,0,0,0,0,0,0,0,0,0,0,0,0,0,0,0,0,0,0,0,0,0,0,0,0,0,0,0,0,0,0,
0,0,0,0,0,0,0,0,0,0,0,0,0,0,0,0,0,0,0,0,0,0,0,0,0,0,0,0,0,0,0,0,0,0,0,0,0,0,0,0,0,0,0,0,0,0,0,0,0,0,0,0,0,0,0,0,0,0,0,0,0,0,0,0,0,0,0,0,0,0,
0,0,0,0,0,0,0,0,0,0,0,0,0,0,0,0,0,0,0,0,0,0,0,0,0,0,0,0,0,0,0,0,0,0,0,0,0,0,0,0,0,0,0,0,0,0,0,0,0,0,0,0,0,0,0,0,0,0,0,0,0,0,0,0,0,0,0,0,0,0,
0,0,0,0,0,0,0,0,0,0,0,0,0,0,0,0,0,0,0,0,0,0,0,0,0,0,0,0,0,0,0,0,0,0,0,0,0,0,0,0,0,0,0,0,0,0,0,0,0,0,0,0,0,0,0,0,0,0,0,0,0,0,0,0,0,0,0,0,0,0,
0,0,0,0,0,0,0,0,0,0,0,0,0,0,0,0,0,0,0,0,0,0,0,0,0,0,0,0,0,0,0,0,0,0,0,0,0,0,0,0,0,0,0,0,0,0,0,0,0,0,0,0,0,0,0,0,0,0,0,0,0,0,0,0,0,0,0,0,0,0,
0,0,0,0,0,0,0,0,0,0,0,0,0,0,0,0,0,0,0,0,0,0,0,0,0,0,0,0,0,0,0,0,0,0,0,0,0,0,0,0,0,0,0,0,0,0,0,0,0,0,0,0,0,0,0,0,0,0,0,0,0,0,0,0,0,0,0,0,0,0,
0,0,0,0,0,0,0,0,0,0,0,0,0,0,0,0,0,0,0,0,0,0,0,0,0,0,0,0,0,0,0,0,0,0,0,0,0,0,0,0,0,0,0,0,0,0,0,0,0,0,0,0,0,0,0,0,0,0,0,0,0,0,0,0,0,0,0,0,0,0,
0,0,0,0,0,0,0,0,0,0,0,0,0,0,0,0,0,0,0,0,0,0,0,0,0,0,0,0,0,0,0,0,0,0,0,0,0,0,0,0,0,0,0,0,0,0,0,0,0,0,0,0,0,0,0,0,0,0,0,0,0,0,0,0,0,0,0,0,0,0,
0,0,0,0,0,0,0,0,0,0,0,0,0,0,0,0,0,0,0,0,0,0,0,0,0,0,0,0,0,0,0,0,0,0,0,0,0,0,0,0,0,0,0,0,0,0,0,0,0,0,0,0,0,0,0,0,0,0,0,0,0,0,0,0,0,0,0,0,0,0,
0,0,0,0,0,0,0,0,0,0,0,0,0,0,0,0,0,0,0,0,0,0,0,0,0,0,0,0,0,0,0,0,0,0,0,0,0,0,0,0,0,0,0,0,0,0,0,0,0,0,0,0,0,0,0,0,0,0,0,0,0,0,0,0,0,0,0,0,0,0,
0,0,0,0,0,0,0,0,0,0,0,0,0,0,0,0,0,0,0,0,0,0,0,0,0,0,0,0,0,0,0,0,0,0,0,0,0,0,0,0,0,0,0,0,0,0,0,0,0,0,0,0,0,0,0,0,0,0,0,0,0,0,0,0,0,0,0,0,0,0,
0,0,0,0,0,0,0,0,0,0,0,0,0,0,0,0,0,0,0,0,0,0,0,0,0,0,0,0,0,0,0,0,0,0,0,0,0,0,0,0,0,0,0,0,0,0,0,0,0,0,0,0,0,0,0,0,0,0,0,0,0,0,0,0,0,0,0,0,0,0,
0,0,0,0,0,0,0,0,0,0,0,0,0,0,0,0,0,0,0,0,0,0,0,0,0,0,0,0,0,0,0,0,0,0,0,0,0,0,0,0,0,0,0,0,0,0,0,0,0,0,0,0,0,0,0,0,0,0,0,0,0,0,0,0,0,0,0,0,0,0,
0,0,0,0,0,0,0,0,0,0,0,0,0,0,0,0,0,0,0,0,0,0,0,0,0,0,0,0,0,0,0,0,0,0,0,0,0,0,0,0,0,0,0,0,0,0,0,0,0,0,0,0,0,0,0,0,0,0,0,0,0,0,0,0,0,0,0,0,0,0,
0,0,0,0,0,0,0,0,0,0,0,0,0,0,0,0,0,0,0,0,0,0,0,0,0,0,0,0,0,0,0,0,0,0,0,0,0,0,0,0,0,0,0,0,0,0,0,0,0,0,0,0,0,0,0,0,0,0,0,0,0,0,0,0,0,0,0,0,0,0,
0,0,0,0,0,0,0,0,0,0,0,0,0,0,0,0,0,0,0,0,0,0,0,0,0,0,0,0,0,0,0,0,0,0,0,0,0,0,0,0,0,0,0,0,0,0,0,0,0,0,0,0,0,0,0,0,0,0,0,0,0,0,0,0,0,0,0,0,0,0,
0,0,0,0,0,0,0,0,0,0,0,0,0,0,0,0,0,0,0,0,0,0,0,0,0,0,0,0,0,0,0,0,0,0,0,0,0,0,0,0,0,0,0,0,0,0,0,0,0,0,0,0,0,0,0,0,0,0,0,0,0,0,0,0,0,0,0,0,0,0,
0,0,0,0,0,0,0,0,0,0,0,0,0,0,0,0,0,0,0,0,0,0,0,0,0,0,0,0,0,0,0,0,0,0,0,0,0,0,0,0,0,0,0,0,0,0,0,0,0,0,0,0,0,0,0,0,0,0,0,0,0,0,0,0,0,0,0,0,0,0,
0,0,0,0,0,0,0,0,0,0,0,0,0,0,0,0,0,0,0,0,0,0,0,0,0,0,0,0,0,0,0,0,0,0,0,0,0,0,0,0,0,0,0,0,0,0,0,0,0,0,0,0,0,0,0,0,0,0,0,0,0,0,0,0,0,0,0,0,0,0,
0,0,0,0,0,0,0,0,0,0,0,0,0,0,0,0,0,0,0,0,0,0,0,0,0,0,0,0,0,0,0,0,0,0,0,0,0,0,0,0,0,0,0,0,0,0,0,0,0,0,0,0,0,0,0,0,0,0,0,0,0,0,0,0,0,0,0,0,0,0,
0,0,0,0,0,0,0,0,0,0,0,0,0,0,0,0,0,0,0,0,0,0,0,0,0,0,0,0,0,0,0,0,0,0,0,0,0,0,0,0,0,0,0,0,0,0,0,0,0,0,0,0,0,0,0,0,0,0,0,0,0,0,0,0,0,0,0,0,0,0,
0,0,0,0,0,0,0,0,0,0,0,0,0,0,0,0,0,0,0,0,0,0,0,0,0,0,0,0,0,0,0,0,0,0,0,0,0,0,0,0,0,0,0,0,0,0,0,0,0,0,0,0,0,0,0,0,0,0,0,0,0,0,0,0,0,0,0,0,0,0,
0,0,0,0,0,0,0,0,0,0,0,0,0,0,0,0,0,0,0,0,0,0,0,0,0,0,0,0,0,0,0,0,0,0,0,0,0,0,0,0,0,0,0,0,0,0,0,0,0,0,0,0,0,0,0,0,0,0,0,0,0,0,0,0,0,0,0,0,0,0,
0,0,0,0,0,0,0,0,0,0,0,0,0,0,0,0,0,0,0,0,0,0,0,0,0,0,0,0,0,0,0,0,0,0,0,0,0,0,0,0,0,0,0,0,0,0,0,0,0,0,0,0,0,0,0,0,0,0,0,0,0,0,0,0,0,0,0,0,0,0,
0,0,0,0,0,0,0,0,0,0,0,0,0,0,0,0,0,0,0,0,0,0,0,0,0,0,0,0,0,0,0,0,0,0,0,0,0,0,0,0,0,0,0,0,0,0,0,0,0,0,0,0,0,0,0,0,0,0,0,0,0,0,0,0,0,0,0,0,0,0,
0,0,0,0,0,0,0,0,0,0,0,0,0,0,0,0,0,0,0,0,0,0,0,0,0,0,0,0,0,0,0,0,0,0,0,0,0,0,0,0,0,0,0,0,0,0,0,0,0,0,0,0,0,0,0,0,0,0,0,0,0,0,0,0,0,0,0,0,0,0,
0,0,0,0,0,0,0,0,0,0,0,0,0,0,0,0,0,0,0,0,0,0,0,0,0,0,0,0,0,0,0,0,0,0,0,0,0,0,0,0,0,0,0,0,0,0,0,0,0,0,0,0,0,0,0,0,0,0,0,0,0,0,0,0,0,0,0,0,0,0,
0,0,0,0,0,0,0,0,0,0,0,0,0,0,0,0,0,0,0,0,0,0,0,0,0,0,0,0,0,0,0,0,0,0,0,0,0,0,0,0,0,0,0,0,0,0,0,0,0,0,0,0,0,0,0,0,0,0,0,0,0,0,0,0,0,0,0,0,0,0,
0,0,0,0,0,0,0,0,0,0,0,0,0,0,0,0,0,0,0,0,0,0,0,0,0,0,0,0,0,0,0,0,0,0,0,0,0,1322,0,0,0,0,0,0,0,0,0,0,0,0,0,0,0,0,0,0,0,0,0,0,0,0,0,0,0,0,0,0,0,0,
0,0,0,0,0,0,0,0,0,0,0,0,0,0,0,0,0,0,0,0,0,0,0,0,0,0,0,0,0,0,0,0,0,0,0,0,0,0,0,0,0,0,0,0,0,0,0,0,0,0,0,0,0,0,0,0,0,0,0,0,0,0,0,0,0,0,0,0,0,0,
0,0,0,0,0,0,0,0,0,0,0,0,0,0,0,0,0,0,0,0,0,0,0,0,0,0,0,0,0,0,0,0,0,0,0,0,0,0,0,0,0,0,0,0,0,0,0,0,0,0,0,0,0,0,0,0,0,0,0,0,0,0,0,0,0,0,0,0,0,0
</data>
 </layer>
</map>
