<?xml version="1.0" encoding="UTF-8"?>
<map version="1.0" orientation="orthogonal" renderorder="right-down" width="46" height="28" tilewidth="32" tileheight="32" nextobjectid="47">
 <tileset firstgid="1" name="Outdoor" tilewidth="8" tileheight="8" tilecount="10000" columns="20">
  <image source="../Maps/Tiles.png" trans="ff00ff" width="160" height="176"/>
  <terraintypes>
   <terrain name="Block" tile="-1"/>
  </terraintypes>
  <tile id="0">
   <properties>
    <property name="Block" value="True"/>
    <property name="Changos" type="bool" value="true"/>
   </properties>
  </tile>
  <tile id="1">
   <properties>
    <property name="Block" value="True"/>
   </properties>
  </tile>
  <tile id="2">
   <properties>
    <property name="Block" value="True"/>
   </properties>
  </tile>
  <tile id="3">
   <properties>
    <property name="Block" value="True"/>
   </properties>
  </tile>
  <tile id="4">
   <properties>
    <property name="Block" value="True"/>
   </properties>
  </tile>
  <tile id="5">
   <properties>
    <property name="Block" value="True"/>
   </properties>
  </tile>
  <tile id="6">
   <properties>
    <property name="Block" value="True"/>
   </properties>
  </tile>
  <tile id="7">
   <properties>
    <property name="Block" value="True"/>
   </properties>
  </tile>
  <tile id="8">
   <properties>
    <property name="Block" value="True"/>
   </properties>
  </tile>
  <tile id="9">
   <properties>
    <property name="Block" value="True"/>
   </properties>
  </tile>
  <tile id="10">
   <properties>
    <property name="Block" value="True"/>
   </properties>
  </tile>
  <tile id="11">
   <properties>
    <property name="Block" value="True"/>
   </properties>
  </tile>
  <tile id="12">
   <properties>
    <property name="Block" value="True"/>
   </properties>
  </tile>
  <tile id="100">
   <properties>
    <property name="Block" value="True"/>
   </properties>
  </tile>
  <tile id="101">
   <properties>
    <property name="Block" value="True"/>
   </properties>
  </tile>
  <tile id="102">
   <properties>
    <property name="Block" value="True"/>
   </properties>
  </tile>
  <tile id="103">
   <properties>
    <property name="Block" value="True"/>
   </properties>
  </tile>
  <tile id="104">
   <properties>
    <property name="Block" value="True"/>
   </properties>
  </tile>
  <tile id="105">
   <properties>
    <property name="Block" value="True"/>
   </properties>
  </tile>
  <tile id="106">
   <properties>
    <property name="Block" value="True"/>
   </properties>
  </tile>
  <tile id="107">
   <properties>
    <property name="Block" value="True"/>
   </properties>
  </tile>
  <tile id="108">
   <properties>
    <property name="Block" value="True"/>
   </properties>
  </tile>
  <tile id="109">
   <properties>
    <property name="Block" value="True"/>
   </properties>
  </tile>
  <tile id="110">
   <properties>
    <property name="Block" value="True"/>
   </properties>
  </tile>
  <tile id="111">
   <properties>
    <property name="Block" value="True"/>
   </properties>
  </tile>
  <tile id="112">
   <properties>
    <property name="Block" value="True"/>
   </properties>
  </tile>
  <tile id="200" terrain="0,0,0,0"/>
  <tile id="201" terrain="0,0,0,0"/>
  <tile id="202" terrain="0,0,0,0"/>
  <tile id="203" terrain="0,0,0,0"/>
  <tile id="204" terrain="0,0,0,0"/>
  <tile id="205" terrain="0,0,0,0"/>
  <tile id="206" terrain="0,0,0,0"/>
  <tile id="207" terrain="0,0,0,0"/>
  <tile id="208" terrain="0,0,0,0"/>
  <tile id="209" terrain="0,0,0,0"/>
  <tile id="211" terrain="0,0,0,0"/>
  <tile id="212" terrain="0,0,0,0"/>
  <tile id="213" terrain="0,0,0,0"/>
  <tile id="214" terrain="0,0,0,0"/>
  <tile id="215" terrain="0,0,0,0"/>
  <tile id="216" terrain="0,0,0,0"/>
  <tile id="300" terrain="0,0,0,0"/>
  <tile id="301" terrain="0,0,0,0"/>
  <tile id="302" terrain="0,0,0,0"/>
  <tile id="303" terrain="0,0,0,0"/>
  <tile id="304" terrain="0,0,0,0"/>
  <tile id="305" terrain="0,0,0,0"/>
  <tile id="306" terrain="0,0,0,0"/>
  <tile id="307" terrain="0,0,0,0"/>
  <tile id="308" terrain="0,0,0,0"/>
  <tile id="309" terrain="0,0,0,0"/>
  <tile id="311" terrain="0,0,,0"/>
  <tile id="312" terrain="0,0,0,"/>
  <tile id="313" terrain="0,0,0,0"/>
  <tile id="314" terrain="0,0,0,0"/>
  <tile id="315" terrain="0,0,0,0"/>
  <tile id="316" terrain="0,0,0,0"/>
  <tile id="400" terrain=",,,0"/>
  <tile id="401" terrain="0,0,0,0"/>
  <tile id="402" terrain="0,0,0,0"/>
  <tile id="403" terrain=",,0,"/>
  <tile id="404" terrain=",,0,0"/>
  <tile id="405" terrain=",0,0,0"/>
  <tile id="406" terrain="0,,0,0"/>
  <tile id="407" terrain=",,0,0"/>
  <tile id="408" terrain="0,0,0,0"/>
  <tile id="409" terrain="0,0,0,0"/>
  <tile id="410" terrain=",,0,0"/>
  <tile id="411" terrain=",0,,0"/>
  <tile id="412" terrain="0,,0,"/>
  <tile id="413" terrain="0,0,0,0"/>
  <tile id="414" terrain="0,0,0,0"/>
  <tile id="415" terrain="0,0,0,0"/>
  <tile id="416" terrain="0,0,0,0"/>
  <tile id="500" terrain=",0,,0"/>
  <tile id="501" terrain="0,0,0,0"/>
  <tile id="502" terrain="0,0,0,0"/>
  <tile id="503" terrain="0,,0,"/>
  <tile id="504" terrain=",0,0,0"/>
  <tile id="505" terrain="0,0,0,0"/>
  <tile id="506" terrain="0,0,0,0"/>
  <tile id="507" terrain="0,,0,0"/>
  <tile id="508" terrain="0,0,0,0"/>
  <tile id="509" terrain="0,0,0,0"/>
  <tile id="511" terrain=",,,0"/>
  <tile id="512" terrain=",,0,0"/>
  <tile id="513" terrain="0,0,0,0"/>
  <tile id="514" terrain="0,0,0,0"/>
  <tile id="515" terrain=",,0,0"/>
  <tile id="600" terrain=",0,,0"/>
  <tile id="601" terrain="0,0,0,0"/>
  <tile id="602" terrain="0,0,0,0"/>
  <tile id="603" terrain="0,,0,"/>
  <tile id="604" terrain="0,0,,0"/>
  <tile id="605" terrain="0,0,0,0"/>
  <tile id="606" terrain="0,0,0,0"/>
  <tile id="607" terrain="0,0,0,"/>
  <tile id="610" terrain=",,,0"/>
  <tile id="611" terrain=",0,0,0"/>
  <tile id="612" terrain="0,0,0,0"/>
  <tile id="613" terrain="0,0,0,0"/>
  <tile id="614" terrain="0,0,0,0"/>
  <tile id="615" terrain="0,0,0,0"/>
  <tile id="616" terrain="0,0,0,0"/>
  <tile id="617" terrain=",,0,"/>
  <tile id="700" terrain=",0,,"/>
  <tile id="701" terrain="0,0,,0"/>
  <tile id="702" terrain="0,0,0,"/>
  <tile id="703" terrain="0,,,"/>
  <tile id="704" terrain="0,0,,0"/>
  <tile id="705" terrain="0,0,,0"/>
  <tile id="706" terrain="0,0,0,"/>
  <tile id="707" terrain="0,0,0,"/>
  <tile id="710" terrain="0,0,0,0"/>
  <tile id="711" terrain="0,0,0,0"/>
  <tile id="712" terrain="0,0,0,0"/>
  <tile id="713" terrain="0,0,0,0"/>
  <tile id="714" terrain="0,0,0,0"/>
  <tile id="715" terrain="0,0,0,0"/>
  <tile id="716" terrain="0,0,0,0"/>
  <tile id="717" terrain="0,,0,"/>
  <tile id="801" terrain="0,,0,0"/>
  <tile id="802" terrain=",0,0,0"/>
  <tile id="803" terrain="0,0,0,0"/>
  <tile id="804" terrain="0,0,0,0"/>
  <tile id="805" terrain="0,0,0,0"/>
  <tile id="806" terrain="0,0,0,0"/>
  <tile id="807" terrain="0,,0,0"/>
  <tile id="808" terrain="0,0,0,0"/>
  <tile id="810" terrain="0,0,0,0"/>
  <tile id="811" terrain="0,0,0,0"/>
  <tile id="812" terrain="0,0,0,0"/>
  <tile id="813" terrain="0,0,0,0"/>
  <tile id="814" terrain="0,0,0,0"/>
  <tile id="815" terrain="0,0,0,0"/>
  <tile id="816" terrain="0,0,0,0"/>
  <tile id="817" terrain="0,,0,"/>
  <tile id="900" terrain="0,0,0,0"/>
  <tile id="901" terrain="0,0,0,0"/>
  <tile id="902" terrain="0,0,0,0"/>
  <tile id="903" terrain="0,0,0,0"/>
  <tile id="904" terrain="0,0,0,0"/>
  <tile id="905" terrain="0,0,0,0"/>
  <tile id="906" terrain="0,0,0,0"/>
  <tile id="907" terrain="0,0,0,0"/>
  <tile id="908" terrain="0,0,0,0"/>
  <tile id="909" terrain="0,0,0,0"/>
  <tile id="910" terrain="0,0,0,0"/>
  <tile id="911" terrain="0,0,0,0"/>
  <tile id="912" terrain="0,0,0,0"/>
  <tile id="913" terrain="0,0,0,0"/>
  <tile id="914" terrain="0,0,0,0"/>
  <tile id="915" terrain="0,0,0,0"/>
  <tile id="916" terrain="0,0,0,0"/>
  <tile id="917" terrain="0,,0,"/>
  <tile id="1000" terrain="0,0,0,0"/>
  <tile id="1001" terrain="0,0,0,0"/>
  <tile id="1002" terrain="0,0,0,0"/>
  <tile id="1003" terrain="0,0,,"/>
  <tile id="1004" terrain="0,0,0,0"/>
  <tile id="1005" terrain="0,0,0,0"/>
  <tile id="1006" terrain="0,0,,"/>
  <tile id="1007" terrain="0,0,,0"/>
  <tile id="1008" terrain="0,0,0,0"/>
  <tile id="1009" terrain="0,0,0,0"/>
  <tile id="1010" terrain=",0,,0"/>
  <tile id="1011" terrain="0,0,0,0"/>
  <tile id="1012" terrain="0,0,0,0"/>
  <tile id="1013" terrain="0,0,0,0"/>
  <tile id="1014" terrain="0,0,0,0"/>
  <tile id="1015" terrain="0,0,0,0"/>
  <tile id="1016" terrain="0,0,0,0"/>
  <tile id="1017" terrain="0,,,"/>
  <tile id="1100" terrain="0,0,0,0"/>
  <tile id="1101" terrain="0,0,0,0"/>
  <tile id="1108" terrain="0,0,0,0"/>
  <tile id="1109" terrain="0,0,0,0"/>
  <tile id="1110" terrain=",0,,0"/>
  <tile id="1111" terrain="0,0,0,0"/>
  <tile id="1112" terrain="0,0,0,0"/>
  <tile id="1113" terrain="0,0,0,0"/>
  <tile id="1114" terrain="0,0,0,0"/>
  <tile id="1115" terrain="0,0,0,0"/>
  <tile id="1116" terrain="0,0,0,0"/>
  <tile id="1117" terrain="0,,0,"/>
  <tile id="1200" terrain="0,0,0,0"/>
  <tile id="1201" terrain="0,0,0,0"/>
  <tile id="1208" terrain="0,0,0,0"/>
  <tile id="1209" terrain="0,0,0,0"/>
  <tile id="1211" terrain="0,0,0,0"/>
  <tile id="1212" terrain="0,0,0,0"/>
  <tile id="1213" terrain="0,0,0,0"/>
  <tile id="1214" terrain="0,0,0,0"/>
  <tile id="1215" terrain="0,0,0,0"/>
  <tile id="1216" terrain="0,0,0,"/>
  <tile id="1311" terrain="0,0,0,0"/>
  <tile id="1312" terrain="0,0,0,0"/>
  <tile id="1313" terrain="0,0,0,0"/>
  <tile id="1314" terrain="0,0,0,0"/>
  <tile id="1315" terrain="0,0,0,0"/>
  <tile id="1316" terrain="0,,0,0"/>
  <tile id="1413" terrain="0,0,,"/>
  <tile id="1414" terrain="0,0,,"/>
 </tileset>
 <layer name="Tile Layer 1" width="46" height="28">
  <data encoding="csv">
89,90,90,90,90,90,90,90,90,90,90,90,90,90,90,45,46,45,46,45,46,45,46,45,46,45,46,45,46,45,46,90,90,90,90,90,90,90,90,90,90,90,90,90,90,89,
109,110,110,110,110,110,110,110,110,110,110,110,110,110,110,65,66,65,66,65,66,65,66,65,66,65,66,65,66,65,66,110,110,110,110,110,110,110,110,110,110,110,110,110,110,109,
89,1,52,53,1,1,1,1,1,1,1,1,1,1,1,2,3,2,3,2,3,2,3,2,3,2,3,2,3,2,3,1,1,1,1,1,1,1,1,1,1,81,82,83,84,89,
109,1,72,73,1,1,1,1,1,1,1,1,1,1,1,12,13,12,13,12,13,12,13,12,13,12,13,12,13,12,13,1,1,1,1,1,1,1,1,1,1,101,102,103,104,109,
89,1,92,93,1,1,1,1,1,1,1,1,1,1,1,1,1,1,1,1,1,1,1,1,1,1,1,1,1,1,1,1,1,1,1,1,1,1,1,1,1,121,122,123,124,89,
109,1,12,13,1,1,1,1,1,1,1,21,1,1,1,1,1,1,1,1,1,1,1,1,1,1,1,1,1,1,1,1,1,1,1,21,1,1,1,1,1,141,142,143,144,109,
89,1,1,1,1,89,91,91,91,91,91,91,91,91,91,89,1,1,1,1,1,1,1,1,1,1,1,1,21,1,1,1,1,1,1,1,1,1,1,1,1,1,1,1,1,89,
109,1,1,1,1,109,111,111,111,111,111,111,111,111,111,109,1,1,1,1,1,1,1,1,1,1,1,1,1,1,1,1,1,1,1,401,1,45,46,45,46,45,46,45,46,109,
89,1,1,1,1,89,149,149,149,149,149,149,149,149,150,89,1,1,1,21,1,1,1,47,48,1,1,1,1,1,1,1,1,1,1,4,5,65,66,65,66,65,66,65,66,89,
109,1,1,1,1,109,149,149,149,149,149,149,149,149,150,109,1,1,1,1,1,1,1,67,68,1,1,1,1,1,1,1,1,1,1,6,7,81,82,83,84,85,86,87,88,109,
89,1,1,1,1,89,149,149,85,86,87,88,149,149,150,89,21,1,1,47,48,47,48,47,48,47,48,47,48,1,1,1,1,1,1,6,7,101,102,103,104,105,106,107,108,89,
109,1,1,1,1,109,149,149,105,106,107,108,149,149,150,109,1,1,1,67,68,67,68,67,68,67,68,67,68,1,1,1,21,1,1,6,7,121,122,123,124,125,126,127,128,109,
89,1,1,1,1,89,149,149,125,126,127,128,149,149,150,89,1,1,1,47,48,1,1,47,48,1,1,47,48,1,1,1,1,1,1,6,7,141,142,143,144,145,146,147,148,89,
109,1,1,1,1,109,149,149,145,146,147,148,149,149,150,109,1,1,1,67,68,1,1,67,68,1,1,67,68,1,1,1,1,1,1,6,7,45,46,45,46,45,46,45,46,109,
89,1,1,1,1,89,149,149,149,149,149,149,149,149,150,89,1,1,1,1,1,1,1,1,1,1,1,1,1,1,1,1,1,1,1,24,25,65,66,65,66,65,66,65,66,89,
109,1,1,1,1,109,149,149,149,149,149,149,149,149,150,109,1,1,1,1,1,1,1,1,1,1,1,1,1,1,21,1,1,1,1,1,1,1,1,1,1,1,1,1,1,109,
89,1,1,1,1,90,91,90,91,90,91,90,91,90,91,90,1,1,1,1,1,1,1,1,1,1,1,1,1,1,1,1,1,1,1,1,1,223,112,113,114,115,116,117,223,89,
109,1,1,1,1,110,111,110,111,110,111,110,111,110,111,110,1,1,1,1,1,1,21,1,1,1,1,1,1,1,1,1,1,1,1,1,1,131,132,133,134,135,136,137,138,109,
89,1,1,1,1,1,1,1,1,1,1,1,1,1,1,1,1,1,1,1,1,1,1,1,1,1,1,1,1,1,21,1,1,1,1,1,1,151,152,153,154,155,156,157,158,89,
109,1,1,1,1,1,1,1,1,1,1,1,1,1,1,1,1,1,1,1,1,1,1,1,1,1,1,1,1,1,1,1,1,1,1,1,1,171,172,173,174,175,176,177,178,109,
89,1,1,1,1,1,1,1,1,1,1,1,1,1,1,1,1,1,1,1,1,1,1,1,1,1,1,1,1,1,1,1,223,223,223,223,1,191,192,193,194,195,196,197,198,89,
109,1,1,1,21,1,1,1,1,1,1,1,1,1,1,1,1,1,21,161,162,163,164,165,166,167,168,169,170,1,1,1,223,223,223,223,1,211,212,213,214,215,216,217,218,109,
89,1,1,1,1,1,1,1,1,1,1,1,1,1,1,1,1,1,1,181,182,183,184,185,186,187,188,189,190,1,1,1,223,223,223,223,1,231,232,233,234,235,236,237,238,89,
109,1,1,1,1,1,1,1,1,1,1,1,1,1,1,1,1,1,1,201,202,203,204,205,206,207,208,209,210,1,1,1,223,223,223,223,1,251,252,253,254,255,256,257,258,109,
89,1,1,1,1,1,1,1,1,1,1,1,1,1,1,1,1,1,1,221,222,223,224,225,226,227,228,229,230,1,1,1,1,1,1,1,1,223,272,273,274,275,276,277,223,89,
109,1,1,1,1,1,1,1,1,1,1,1,1,1,1,1,1,1,1,221,221,223,224,225,226,227,228,229,221,1,1,1,1,1,1,1,1,223,223,293,294,295,296,223,223,109,
90,91,91,91,91,91,91,91,91,91,91,91,91,91,91,91,91,91,90,221,221,223,224,225,226,227,228,221,221,90,91,91,91,91,91,91,91,91,91,91,91,91,91,91,91,89,
110,111,111,111,111,111,111,111,111,111,111,111,111,111,111,111,111,111,110,241,241,243,244,245,246,247,248,241,241,110,111,111,111,111,111,111,111,111,111,111,111,111,111,111,111,109
</data>
 </layer>
 <objectgroup name="objLayer">
  <object id="41" name="Buzon" x="17.4545" y="16.7273" width="13.0909" height="19.8182"/>
  <object id="42" name="Agua" x="120.667" y="0.666667" width="127.667" height="21.6667"/>
  <object id="43" name="Ramas" x="183.091" y="84.1818">
   <polyline points="0,0 -3.63636,-3.81818 -10.9091,-4 -14.7273,-0.727273 -17.6364,-1.09091 -19.0909,-3.81818 -27.2727,-4 -30.3636,-0.909091 -30.7273,8 -28.3636,10.3636 -26.9091,11.8182 -30.5455,15.0909 -30.7273,22.9091 -28.7273,26.3636 -23.2727,27.0909 -18,26.7273 -15.6364,22.9091 -15.0909,16 -18.3636,12 -18.3636,10 -15.0909,8.54545 -12.9091,9.63636 -8.36364,10.3636 -7.27273,11.2727 -3.81818,10 -0.727273,9.63636 1.09091,8.18182 3.45455,9.45455 3.81818,11.2727 4.54545,13.2727 2.18182,15.2727 1.63636,16.7273 1.09091,22 2.72727,25.2727 5.27273,26.7273 9.63636,27.0909 14.7273,25.4545 16.7273,21.2727 17.4545,17.0909 16.1818,14.5455 14.9091,12 15.2727,8.36364 18,8 19.0909,9.27273 21.8182,10.1818 23.2727,10.5455 24.9091,11.2727 27.8182,11.2727 30.1818,10.1818 32.5455,8.72727 34,8.18182 35.0909,10 35.4545,11.4545 35.2727,13.0909 33.8182,14.7273 32.9091,16.7273 31.8182,19.8182 33.6364,24.9091 35.2727,25.8182 37.0909,27.6364 41.4545,28.5455 45.6364,28.5455 48,26.1818 49.2727,23.2727 49.0909,20.1818 48.3636,17.0909 46.9091,14.9091 46.5455,12.9091 46.7273,10 48.1818,8.36364 48.7273,4.90909 49.0909,1.81818 48.9091,-0.181818 46,-1.63636 42,-3.81818 39.4545,-3.81818 36.3636,-3.27273 35.0909,-1.45455 32.9091,-0.909091 30,-2 28,-4 23.2727,-4.18182 20.3636,-4.18182 17.4545,-2.36364 15.8182,-1.09091 13.6364,-2.72727 14,-5.09091 16.7273,-7.63636 17.6364,-9.27273 16.7273,-15.8182 13.8182,-19.0909 9.63636,-19.6364 5.45455,-19.2727 2.90909,-18.1818 -0.363636,-14.1818 1.09091,-9.45455 2.54545,-5.63636 2.18182,-1.81818 0,0.181818"/>
  </object>
 </objectgroup>
</map>
