<?xml version="1.0" encoding="UTF-8"?>
<map version="1.0" orientation="orthogonal" renderorder="right-down" width="23" height="14" tilewidth="16" tileheight="16" nextobjectid="22">
 <tileset firstgid="1" name="Tiles_16x16" tilewidth="16" tileheight="16" tilecount="322" columns="23">
  <image source="../Maps/Tiles_16x16.png" trans="ff00ff" width="368" height="224"/>
  <terraintypes>
   <terrain name="New Terrain" tile="-1"/>
  </terraintypes>
  <tile id="0">
   <properties>
    <property name="Type" value="Passable"/>
   </properties>
  </tile>
  <tile id="1">
   <properties>
    <property name="Type" value="Passable"/>
   </properties>
  </tile>
  <tile id="2">
   <properties>
    <property name="Type" value="Passable"/>
   </properties>
  </tile>
  <tile id="3">
   <properties>
    <property name="Type" value="Passable"/>
   </properties>
  </tile>
  <tile id="4" terrain="0,0,0,0">
   <properties>
    <property name="Type" value="Passable"/>
   </properties>
  </tile>
  <tile id="5">
   <properties>
    <property name="Type" value="Passable"/>
   </properties>
  </tile>
  <tile id="23" terrain="0,0,0,0">
   <properties>
    <property name="Type" value="Block"/>
   </properties>
  </tile>
  <tile id="24" terrain="0,0,0,0">
   <properties>
    <property name="Type" value="Block"/>
   </properties>
  </tile>
  <tile id="25" terrain="0,0,0,0">
   <properties>
    <property name="Type" value="Block"/>
   </properties>
  </tile>
  <tile id="26" terrain="0,0,0,0">
   <properties>
    <property name="Type" value="Block"/>
   </properties>
  </tile>
  <tile id="27">
   <properties>
    <property name="Type" value="Block"/>
   </properties>
  </tile>
  <tile id="30">
   <properties>
    <property name="Type" value="Block"/>
   </properties>
  </tile>
  <tile id="31">
   <properties>
    <property name="Type" value="Block"/>
   </properties>
  </tile>
  <tile id="32">
   <properties>
    <property name="Type" value="Block"/>
   </properties>
  </tile>
  <tile id="33">
   <properties>
    <property name="Type" value="Block"/>
   </properties>
  </tile>
  <tile id="46" terrain="0,0,0,0">
   <properties>
    <property name="Type" value="Block"/>
   </properties>
  </tile>
  <tile id="47" terrain="0,0,0,0">
   <properties>
    <property name="Type" value="Block"/>
   </properties>
  </tile>
  <tile id="48" terrain="0,0,0,0">
   <properties>
    <property name="Type" value="Block"/>
   </properties>
  </tile>
  <tile id="49">
   <properties>
    <property name="Type" value="Block"/>
   </properties>
  </tile>
  <tile id="50">
   <properties>
    <property name="Type" value="Block"/>
   </properties>
  </tile>
  <tile id="69" terrain="0,0,,">
   <properties>
    <property name="Type" value="Block"/>
   </properties>
  </tile>
  <tile id="70">
   <properties>
    <property name="Type" value="Passable"/>
   </properties>
  </tile>
  <tile id="71">
   <properties>
    <property name="Type" value="Passable"/>
   </properties>
  </tile>
  <tile id="72">
   <properties>
    <property name="Type" value="Block"/>
   </properties>
  </tile>
  <tile id="73">
   <properties>
    <property name="Type" value="Block"/>
   </properties>
  </tile>
  <tile id="92">
   <properties>
    <property name="Type" value="Block"/>
   </properties>
  </tile>
  <tile id="93">
   <properties>
    <property name="Type" value="Block"/>
   </properties>
  </tile>
  <tile id="94">
   <properties>
    <property name="Type" value="Block"/>
   </properties>
  </tile>
  <tile id="95">
   <properties>
    <property name="Type" value="Block"/>
   </properties>
  </tile>
  <tile id="96">
   <properties>
    <property name="Type" value="Block"/>
   </properties>
  </tile>
  <tile id="97">
   <properties>
    <property name="Type" value="Block"/>
   </properties>
  </tile>
  <tile id="98">
   <properties>
    <property name="Type" value="Block"/>
   </properties>
  </tile>
  <tile id="99">
   <properties>
    <property name="Type" value="Block"/>
   </properties>
  </tile>
  <tile id="100">
   <properties>
    <property name="Type" value="Block"/>
   </properties>
  </tile>
  <tile id="101">
   <properties>
    <property name="Type" value="Block"/>
   </properties>
  </tile>
  <tile id="102">
   <properties>
    <property name="Type" value="Block"/>
   </properties>
  </tile>
  <tile id="115">
   <properties>
    <property name="Type" value="Block"/>
   </properties>
  </tile>
  <tile id="116">
   <properties>
    <property name="Type" value="Block"/>
   </properties>
  </tile>
  <tile id="117">
   <properties>
    <property name="Type" value="Block"/>
   </properties>
  </tile>
  <tile id="118">
   <properties>
    <property name="Type" value="Block"/>
   </properties>
  </tile>
  <tile id="119">
   <properties>
    <property name="Type" value="Block"/>
   </properties>
  </tile>
  <tile id="120">
   <properties>
    <property name="Type" value="Block"/>
   </properties>
  </tile>
  <tile id="121">
   <properties>
    <property name="Type" value="Block"/>
   </properties>
  </tile>
  <tile id="122">
   <properties>
    <property name="Type" value="Block"/>
   </properties>
  </tile>
  <tile id="123">
   <properties>
    <property name="Type" value="Block"/>
   </properties>
  </tile>
  <tile id="124">
   <properties>
    <property name="Type" value="Block"/>
   </properties>
  </tile>
  <tile id="125">
   <properties>
    <property name="Type" value="Block"/>
   </properties>
  </tile>
  <tile id="138">
   <properties>
    <property name="Type" value="Passable"/>
   </properties>
  </tile>
  <tile id="139">
   <properties>
    <property name="Type" value="Passable"/>
   </properties>
  </tile>
  <tile id="140">
   <properties>
    <property name="Type" value="Passable"/>
   </properties>
  </tile>
  <tile id="141">
   <properties>
    <property name="Type" value="Passable"/>
   </properties>
  </tile>
  <tile id="142">
   <properties>
    <property name="Type" value="Passable"/>
   </properties>
  </tile>
  <tile id="161">
   <properties>
    <property name="Type" value="Passable"/>
   </properties>
  </tile>
  <tile id="162">
   <properties>
    <property name="Type" value="Passable"/>
   </properties>
  </tile>
  <tile id="163">
   <properties>
    <property name="Type" value="Passable"/>
   </properties>
  </tile>
  <tile id="164">
   <properties>
    <property name="Type" value="Passable"/>
   </properties>
  </tile>
  <tile id="165">
   <properties>
    <property name="Type" value="Passable"/>
   </properties>
  </tile>
  <tile id="171">
   <properties>
    <property name="Type" value="Block"/>
   </properties>
  </tile>
  <tile id="172">
   <properties>
    <property name="Type" value="Block"/>
   </properties>
  </tile>
  <tile id="173">
   <properties>
    <property name="Type" value="Block"/>
   </properties>
  </tile>
  <tile id="174">
   <properties>
    <property name="Type" value="Block"/>
   </properties>
  </tile>
  <tile id="175">
   <properties>
    <property name="Type" value="Block"/>
   </properties>
  </tile>
  <tile id="176">
   <properties>
    <property name="Type" value="Block"/>
   </properties>
  </tile>
  <tile id="184">
   <properties>
    <property name="Type" value="Block"/>
   </properties>
  </tile>
  <tile id="185">
   <properties>
    <property name="Type" value="Passable"/>
   </properties>
  </tile>
  <tile id="186">
   <properties>
    <property name="Type" value="Passable"/>
   </properties>
  </tile>
  <tile id="187">
   <properties>
    <property name="Type" value="Passable"/>
   </properties>
  </tile>
  <tile id="188">
   <properties>
    <property name="Type" value="Block"/>
   </properties>
  </tile>
  <tile id="194">
   <properties>
    <property name="Type" value="Block"/>
   </properties>
  </tile>
  <tile id="195">
   <properties>
    <property name="Type" value="Block"/>
   </properties>
  </tile>
  <tile id="196">
   <properties>
    <property name="Type" value="Block"/>
   </properties>
  </tile>
  <tile id="197">
   <properties>
    <property name="Type" value="Block"/>
   </properties>
  </tile>
  <tile id="198">
   <properties>
    <property name="Type" value="Block"/>
   </properties>
  </tile>
  <tile id="199">
   <properties>
    <property name="Type" value="Block"/>
   </properties>
  </tile>
  <tile id="207">
   <properties>
    <property name="Type" value="Passable"/>
   </properties>
  </tile>
  <tile id="208">
   <properties>
    <property name="Type" value="Passable"/>
   </properties>
  </tile>
  <tile id="209">
   <properties>
    <property name="Type" value="Passable"/>
   </properties>
  </tile>
  <tile id="210">
   <properties>
    <property name="Type" value="Passable"/>
   </properties>
  </tile>
  <tile id="211">
   <properties>
    <property name="Type" value="Block"/>
   </properties>
  </tile>
  <tile id="212">
   <properties>
    <property name="Type" value="Block"/>
   </properties>
  </tile>
  <tile id="213">
   <properties>
    <property name="Type" value="Block"/>
   </properties>
  </tile>
  <tile id="214">
   <properties>
    <property name="Type" value="Block"/>
   </properties>
  </tile>
  <tile id="215">
   <properties>
    <property name="Type" value="Block"/>
   </properties>
  </tile>
  <tile id="216">
   <properties>
    <property name="Type" value="Block"/>
   </properties>
  </tile>
  <tile id="217">
   <properties>
    <property name="Type" value="Block"/>
   </properties>
  </tile>
  <tile id="218">
   <properties>
    <property name="Type" value="Block"/>
   </properties>
  </tile>
  <tile id="219">
   <properties>
    <property name="Type" value="Block"/>
   </properties>
  </tile>
  <tile id="220">
   <properties>
    <property name="Type" value="Block"/>
   </properties>
  </tile>
  <tile id="221">
   <properties>
    <property name="Type" value="Block"/>
   </properties>
  </tile>
  <tile id="222">
   <properties>
    <property name="Type" value="Block"/>
   </properties>
  </tile>
  <tile id="230">
   <properties>
    <property name="Type" value="Passable"/>
   </properties>
  </tile>
  <tile id="231">
   <properties>
    <property name="Type" value="Passable"/>
   </properties>
  </tile>
  <tile id="232">
   <properties>
    <property name="Type" value="Passable"/>
   </properties>
  </tile>
  <tile id="233">
   <properties>
    <property name="Type" value="Passable"/>
   </properties>
  </tile>
  <tile id="234">
   <properties>
    <property name="Type" value="Block"/>
   </properties>
  </tile>
  <tile id="235">
   <properties>
    <property name="Type" value="Block"/>
   </properties>
  </tile>
  <tile id="236">
   <properties>
    <property name="Type" value="Block"/>
   </properties>
  </tile>
  <tile id="237">
   <properties>
    <property name="Type" value="Block"/>
   </properties>
  </tile>
  <tile id="238">
   <properties>
    <property name="Type" value="Block"/>
   </properties>
  </tile>
  <tile id="239">
   <properties>
    <property name="Type" value="Block"/>
   </properties>
  </tile>
  <tile id="240">
   <properties>
    <property name="Type" value="Block"/>
   </properties>
  </tile>
  <tile id="241">
   <properties>
    <property name="Type" value="Block"/>
   </properties>
  </tile>
  <tile id="242">
   <properties>
    <property name="Type" value="Block"/>
   </properties>
  </tile>
  <tile id="243">
   <properties>
    <property name="Type" value="Block"/>
   </properties>
  </tile>
  <tile id="244">
   <properties>
    <property name="Type" value="Block"/>
   </properties>
  </tile>
  <tile id="245">
   <properties>
    <property name="Type" value="Block"/>
   </properties>
  </tile>
  <tile id="253">
   <properties>
    <property name="Type" value="Block"/>
   </properties>
  </tile>
  <tile id="254">
   <properties>
    <property name="Type" value="Block"/>
   </properties>
  </tile>
  <tile id="255">
   <properties>
    <property name="Type" value="Block"/>
   </properties>
  </tile>
  <tile id="256">
   <properties>
    <property name="Type" value="Block"/>
   </properties>
  </tile>
  <tile id="257">
   <properties>
    <property name="Type" value="Block"/>
   </properties>
  </tile>
  <tile id="258">
   <properties>
    <property name="Type" value="Block"/>
   </properties>
  </tile>
  <tile id="259">
   <properties>
    <property name="Type" value="Block"/>
   </properties>
  </tile>
  <tile id="260">
   <properties>
    <property name="Type" value="Block"/>
   </properties>
  </tile>
  <tile id="261">
   <properties>
    <property name="Type" value="Block"/>
   </properties>
  </tile>
  <tile id="262">
   <properties>
    <property name="Type" value="Block"/>
   </properties>
  </tile>
  <tile id="263">
   <properties>
    <property name="Type" value="Block"/>
   </properties>
  </tile>
  <tile id="264">
   <properties>
    <property name="Type" value="Block"/>
   </properties>
  </tile>
  <tile id="265">
   <properties>
    <property name="Type" value="Block"/>
   </properties>
  </tile>
  <tile id="266">
   <properties>
    <property name="Type" value="Block"/>
   </properties>
  </tile>
  <tile id="267">
   <properties>
    <property name="Type" value="Block"/>
   </properties>
  </tile>
  <tile id="268">
   <properties>
    <property name="Type" value="Block"/>
   </properties>
  </tile>
  <tile id="276">
   <properties>
    <property name="Type" value="Block"/>
   </properties>
  </tile>
  <tile id="277">
   <properties>
    <property name="Type" value="Block"/>
   </properties>
  </tile>
  <tile id="278">
   <properties>
    <property name="Type" value="Block"/>
   </properties>
  </tile>
  <tile id="279">
   <properties>
    <property name="Type" value="Block"/>
   </properties>
  </tile>
  <tile id="280">
   <properties>
    <property name="Type" value="Block"/>
   </properties>
  </tile>
  <tile id="281">
   <properties>
    <property name="Type" value="Block"/>
   </properties>
  </tile>
  <tile id="282">
   <properties>
    <property name="Type" value="Block"/>
   </properties>
  </tile>
  <tile id="283">
   <properties>
    <property name="Type" value="Block"/>
   </properties>
  </tile>
  <tile id="284">
   <properties>
    <property name="Type" value="Block"/>
   </properties>
  </tile>
  <tile id="285">
   <properties>
    <property name="Type" value="Block"/>
   </properties>
  </tile>
  <tile id="286">
   <properties>
    <property name="Type" value="Block"/>
   </properties>
  </tile>
  <tile id="287">
   <properties>
    <property name="Type" value="Block"/>
   </properties>
  </tile>
  <tile id="288">
   <properties>
    <property name="Type" value="Passable"/>
   </properties>
  </tile>
  <tile id="289">
   <properties>
    <property name="Type" value="Passable"/>
   </properties>
  </tile>
  <tile id="290">
   <properties>
    <property name="Type" value="Block"/>
   </properties>
  </tile>
  <tile id="291">
   <properties>
    <property name="Type" value="Block"/>
   </properties>
  </tile>
  <tile id="299">
   <properties>
    <property name="Type" value="Passable"/>
   </properties>
  </tile>
  <tile id="300">
   <properties>
    <property name="Type" value="Passable"/>
   </properties>
  </tile>
  <tile id="301">
   <properties>
    <property name="Type" value="Passable"/>
   </properties>
  </tile>
  <tile id="302">
   <properties>
    <property name="Type" value="Passable"/>
   </properties>
  </tile>
  <tile id="303">
   <properties>
    <property name="Type" value="Block"/>
   </properties>
  </tile>
  <tile id="304">
   <properties>
    <property name="Type" value="Block"/>
   </properties>
  </tile>
  <tile id="305">
   <properties>
    <property name="Type" value="Block"/>
   </properties>
  </tile>
  <tile id="306">
   <properties>
    <property name="Type" value="Block"/>
   </properties>
  </tile>
  <tile id="307">
   <properties>
    <property name="Type" value="Block"/>
   </properties>
  </tile>
  <tile id="308">
   <properties>
    <property name="Type" value="Block"/>
   </properties>
  </tile>
  <tile id="309">
   <properties>
    <property name="Type" value="Passable"/>
   </properties>
  </tile>
  <tile id="310">
   <properties>
    <property name="Type" value="Block"/>
   </properties>
  </tile>
  <tile id="311">
   <properties>
    <property name="Type" value="Passable"/>
   </properties>
  </tile>
  <tile id="312">
   <properties>
    <property name="Type" value="Passable"/>
   </properties>
  </tile>
  <tile id="313">
   <properties>
    <property name="Type" value="Block"/>
   </properties>
  </tile>
  <tile id="314">
   <properties>
    <property name="Type" value="Passable"/>
   </properties>
  </tile>
 </tileset>
 <layer name="BaseLayer" width="23" height="14">
  <data encoding="csv">
1,1,1,1,1,1,1,1,1,1,1,1,1,1,1,1,1,1,1,1,1,1,1,
1,1,1,1,1,1,1,1,1,1,1,1,1,1,1,1,1,1,1,1,1,1,1,
1,1,1,1,1,1,1,1,1,1,1,1,1,1,1,1,1,1,1,1,1,1,1,
1,1,1,1,1,1,1,1,1,1,1,1,1,1,1,1,1,1,1,1,1,1,1,
1,1,1,1,1,1,1,1,1,1,1,1,1,1,1,1,1,1,1,1,1,1,1,
1,1,1,1,1,1,1,1,1,1,1,1,1,1,1,1,1,1,1,1,1,1,1,
1,1,1,1,1,1,1,1,1,1,1,1,1,1,1,1,1,1,1,1,1,1,1,
1,1,1,1,1,1,1,1,1,1,1,1,1,1,1,1,1,1,1,1,1,1,1,
1,1,1,1,1,1,1,1,1,1,1,1,1,1,1,1,1,1,1,1,1,1,1,
1,1,1,1,1,1,1,1,1,1,1,1,1,1,1,1,1,1,1,1,1,1,1,
1,1,1,1,1,1,1,1,1,1,1,1,1,1,1,1,1,1,1,1,1,1,1,
1,1,1,1,1,1,1,1,1,1,1,1,1,1,1,1,1,1,1,1,1,1,1,
1,1,1,1,1,1,1,1,1,1,1,1,1,1,1,1,1,1,1,1,1,1,1,
1,1,1,1,1,1,1,1,1,1,1,1,1,1,1,1,1,1,1,1,1,1,1
</data>
 </layer>
 <layer name="LowerLayer" width="23" height="14">
  <data encoding="csv">
24,24,24,24,24,24,24,24,24,48,49,48,49,24,24,24,24,24,24,24,24,24,24,
24,1,1,1,1,1,1,1,1,71,72,71,72,1,1,1,1,1,1,1,1,1,24,
24,1,1,1,1,1,1,1,1,1,1,1,1,1,1,1,1,1,1,1,1,1,24,
24,1,70,1,1,1,1,1,1,1,1,1,1,1,1,1,1,25,1,1,70,1,24,
24,1,93,94,1,1,1,1,1,1,1,1,1,1,1,1,212,213,214,1,1,1,24,
24,1,116,117,1,1,1,1,1,1,48,49,1,1,1,1,235,236,237,238,239,240,24,
24,1,1,1,1,1,1,1,1,1,71,72,1,1,1,1,258,259,260,261,262,263,24,
24,2,1,1,1,1,1,1,1,1,1,1,1,1,1,1,281,282,283,284,285,286,24,
24,2,2,1,1,1,1,1,1,1,1,1,1,1,1,1,304,305,306,307,308,309,24,
24,2,2,1,1,1,1,1,1,1,1,1,1,1,1,1,1,1,2,2,2,2,24,
24,2,2,2,1,1,1,1,1,1,1,1,1,1,1,1,1,2,2,2,2,2,24,
24,2,2,2,2,1,1,1,1,1,1,1,1,1,1,1,2,2,2,2,93,94,24,
24,2,2,2,2,2,1,1,24,185,186,187,188,189,24,2,2,2,2,2,116,117,24,
24,24,24,24,24,24,24,24,24,2,2,2,2,2,24,24,24,24,24,24,24,24,24
</data>
 </layer>
 <layer name="UpperLayer" width="23" height="14">
  <data encoding="csv">
0,0,0,0,0,0,0,0,0,0,0,0,0,0,0,0,0,0,0,0,0,0,0,
0,0,0,0,0,0,0,0,0,0,0,0,0,0,0,0,0,0,0,0,0,0,0,
0,0,47,0,0,0,0,0,0,0,0,0,0,0,0,0,0,0,0,0,47,0,0,
0,0,0,0,0,0,0,0,0,0,0,0,0,0,0,0,0,25,0,0,0,0,0,
0,0,0,0,0,0,0,0,0,0,0,0,0,0,0,0,212,213,214,215,216,217,0,
0,0,0,0,0,0,0,0,0,0,0,0,0,0,0,0,0,0,0,0,0,0,0,
0,0,0,0,0,0,0,0,0,0,0,0,0,0,0,0,0,0,0,0,0,0,0,
0,0,0,0,0,0,0,0,0,0,0,0,0,0,0,0,0,0,0,0,0,0,0,
0,0,0,0,0,0,0,0,0,0,0,0,0,0,0,0,0,0,0,0,0,0,0,
0,0,0,0,0,0,0,0,0,0,0,0,0,0,0,0,0,0,0,0,0,0,0,
0,0,0,0,0,0,0,0,0,139,140,141,142,143,0,0,0,0,0,0,0,0,0,
0,0,0,0,0,0,0,0,0,162,163,164,165,166,0,0,0,0,0,0,0,0,0,
0,0,0,0,0,0,0,0,0,0,0,0,0,0,0,0,0,0,0,0,0,0,0,
0,0,0,0,0,0,0,0,0,0,0,0,0,0,0,0,0,0,0,0,0,0,0
</data>
 </layer>
</map>
